;FLAVOR:Marlin
;TIME:677
;Filament used: 1.87143m
;Layer height: 0.6
;MINX:67.103
;MINY:84.864
;MINZ:0.3
;MAXX:129.151
;MAXY:115.13
;MAXZ:47.7
;TARGET_MACHINE.NAME:Unknown
;ZAA_APPLIED
;Generated with Cura_SteamEngine 5.12.0
M104 S200
M105
M109 S200
G28 ;Home
G1 Z15.0 F6000 ;Move the platform down 15mm
;Prime the extruder
G92 E0
G1 F200 E3
G92 E0
M82 ;absolute extrusion mode
G92 E0
G92 E0
G1 F1500 E-6.5
;LAYER_COUNT:80
;LAYER:0
M107
G0 F3600 X70.099 Y88.472 Z0.3
;TYPE:SKIRT
G1 F1500 E0
G1 F1800 X70.891 Y87.866 E0.09379
G1 X71.77 Y87.311 E0.19157
G1 X73.067 Y86.77 E0.32374
G1 X74.175 Y86.481 E0.43144
G1 X74.831 Y86.366 E0.49408
G1 X99.314 Y84.878 E2.80102
G1 X100.029 Y84.864 E2.86828
G1 X100.735 Y84.875 E2.93469
G1 X102.173 Y84.963 E3.07019
G1 X103.188 Y85.09 E3.1664
G1 X104.154 Y85.252 E3.25852
G1 X105.003 Y85.431 E3.34013
G1 X105.824 Y85.637 E3.41974
G1 X106.543 Y85.846 E3.49016
G1 X107.622 Y86.212 E3.59732
G1 X108.636 Y86.612 E3.69985
G1 X109.321 Y86.918 E3.77041
G1 X110.314 Y87.408 E3.87455
G1 X111.453 Y88.058 E3.9979
G1 X112.477 Y88.716 E4.11238
G1 X113.435 Y89.416 E4.22397
G1 X114.655 Y90.417 E4.37239
G1 X115.531 Y91.246 E4.48583
G1 X115.956 Y91.681 E4.54303
G1 X116.838 Y92.669 E4.66759
G1 X117.627 Y93.662 E4.78688
G1 X118.213 Y94.481 E4.88159
G1 X118.628 Y95.116 E4.95294
G1 X119.13 Y95.947 E5.04425
G1 X119.576 Y96.886 E5.14203
G1 X119.895 Y97.896 E5.24164
G1 X120.125 Y98.994 E5.34716
G1 X120.175 Y100.545 E5.49311
G1 X119.998 Y101.693 E5.60236
G1 X119.723 Y102.694 E5.69999
G1 X119.471 Y103.373 E5.76811
G1 X118.916 Y104.442 E5.88139
G1 X117.923 Y105.941 E6.05051
G1 X117.03 Y107.101 E6.18819
G1 X115.962 Y108.319 E6.34055
G1 X115.137 Y109.134 E6.44962
G1 X114.273 Y109.908 E6.55872
G1 X113.337 Y110.66 E6.67165
G1 X112.431 Y111.312 E6.77663
G1 X111.448 Y111.945 E6.8866
G1 X110.394 Y112.547 E7.00076
G1 X109.562 Y112.969 E7.0885
G1 X108.536 Y113.429 E7.19425
G1 X107.358 Y113.884 E7.31302
G1 X106.174 Y114.264 E7.42998
G1 X105.295 Y114.5 E7.51558
G1 X104.539 Y114.671 E7.58848
G1 X103.643 Y114.839 E7.67422
G1 X102.525 Y114.999 E7.78044
G1 X101.272 Y115.107 E7.89872
G1 X99.487 Y115.13 E8.06662
G1 X97.9 Y115.044 E8.2161
G1 X74.733 Y113.626 E10.3991
G1 X73.708 Y113.426 E10.49732
G1 X72.398 Y112.986 E10.6273
G1 X71.353 Y112.457 E10.73746
G1 X70.459 Y111.823 E10.84054
G1 X69.694 Y111.158 E10.93587
G1 X68.947 Y110.31 E11.04216
G1 X68.379 Y109.473 E11.1373
G1 X67.878 Y108.487 E11.24132
G1 X67.511 Y107.552 E11.33579
G1 X67.253 Y106.5 E11.43767
G1 X67.103 Y105.449 E11.53752
G1 X67.103 Y94.672 E12.55113
G1 X67.233 Y93.647 E12.6483
G1 X67.436 Y92.716 E12.73792
G1 X67.8 Y91.688 E12.84049
G1 X68.253 Y90.729 E12.94024
G1 X68.857 Y89.809 E13.04375
G1 X69.326 Y89.22 E13.11457
G1 X70.099 Y88.472 E13.21574
G0 F3600 X71.404 Y89.992
G1 F1800 X72.037 Y89.508 E13.29068
G1 X72.697 Y89.091 E13.36411
G1 X73.707 Y88.67 E13.46702
G1 X74.68 Y88.416 E13.5616
G1 X75.064 Y88.355 E13.59817
G1 X99.358 Y86.878 E15.88731
G1 X99.998 Y86.864 E15.94752
G1 X100.704 Y86.875 E16.01393
G1 X101.925 Y86.948 E16.12897
G1 X102.94 Y87.075 E16.22518
G1 X103.82 Y87.224 E16.30912
G1 X104.587 Y87.387 E16.38287
G1 X105.266 Y87.558 E16.44873
G1 X105.985 Y87.767 E16.51915
G1 X106.976 Y88.105 E16.61763
G1 X107.824 Y88.44 E16.70338
G1 X108.436 Y88.712 E16.76637
G1 X109.429 Y89.202 E16.87052
G1 X110.377 Y89.744 E16.97323
G1 X111.297 Y90.331 E17.07587
G1 X112.255 Y91.031 E17.18746
G1 X113.282 Y91.872 E17.31231
G1 X114.1 Y92.644 E17.41809
G1 X114.525 Y93.079 E17.47529
G1 X115.275 Y93.917 E17.58106
G1 X116.002 Y94.828 E17.69069
G1 X116.541 Y95.579 E17.77763
G1 X116.916 Y96.15 E17.84188
G1 X117.365 Y96.893 E17.92353
G1 X117.711 Y97.622 E17.99942
G1 X117.957 Y98.4 E18.07617
G1 X118.132 Y99.236 E18.1565
G1 X118.17 Y100.423 E18.2682
G1 X118.038 Y101.28 E18.34975
G1 X117.795 Y102.164 E18.43598
G1 X117.641 Y102.557 E18.47568
G1 X117.189 Y103.427 E18.56789
G1 X116.335 Y104.725 E18.71402
G1 X115.522 Y105.787 E18.83981
G1 X114.556 Y106.896 E18.97814
G1 X113.731 Y107.711 E19.08721
G1 X113.016 Y108.352 E19.17753
G1 X112.164 Y109.04 E19.28052
G1 X111.345 Y109.633 E19.37562
G1 X110.453 Y110.21 E19.47554
G1 X109.489 Y110.763 E19.58007
G1 X108.657 Y111.185 E19.66781
G1 X107.815 Y111.563 E19.75462
G1 X106.637 Y112.018 E19.87339
G1 X105.568 Y112.358 E19.97889
G1 X104.85 Y112.55 E20.0488
G1 X104.166 Y112.706 E20.11478
G1 X103.354 Y112.86 E20.19251
G1 X102.353 Y113.006 E20.28765
G1 X101.1 Y113.114 E20.40594
G1 X99.595 Y113.133 E20.5475
G1 X98.022 Y113.048 E20.69566
G1 X74.987 Y111.638 E22.86622
G1 X74.222 Y111.489 E22.93952
G1 X73.171 Y111.136 E23.0438
G1 X72.387 Y110.739 E23.12645
G1 X71.702 Y110.253 E23.20545
G1 X71.106 Y109.735 E23.27972
G1 X70.528 Y109.079 E23.36195
G1 X70.105 Y108.455 E23.43285
G1 X69.706 Y107.671 E23.51559
G1 X69.421 Y106.944 E23.58903
G1 X69.219 Y106.122 E23.66864
G1 X69.103 Y105.307 E23.74607
G1 X69.103 Y94.798 E24.73447
G1 X69.206 Y93.986 E24.81145
G1 X69.363 Y93.265 E24.88085
G1 X69.651 Y92.452 E24.96197
G1 X70.003 Y91.706 E25.03955
G1 X70.528 Y90.907 E25.12947
G1 X70.808 Y90.569 E25.17075
G1 X71.404 Y89.992 E25.24878
G1 F1500 E18.74878
G0 F3600 X73.927 Y93.097
G1 F1500 E25.24878
G1 F1800 X74.465 Y92.686 E25.31245
G1 X74.855 Y92.504 E25.35293
G1 X75.502 Y92.335 E25.41582
G1 X99.448 Y90.877 E27.67218
G1 X100.013 Y90.864 E27.72534
G1 X100.563 Y90.872 E27.77707
G1 X101.437 Y90.918 E27.85939
G1 X102.287 Y91.022 E27.93993
G1 X103 Y91.139 E28.00788
G1 X103.619 Y91.268 E28.06735
G1 X104.155 Y91.401 E28.11929
G1 X104.788 Y91.583 E28.18124
G1 X105.517 Y91.829 E28.25361
G1 X106.211 Y92.1 E28.32368
G1 X106.687 Y92.309 E28.37257
G1 X107.454 Y92.68 E28.45271
G1 X108.246 Y93.129 E28.53833
G1 X108.951 Y93.571 E28.6166
G1 X109.728 Y94.132 E28.70673
G1 X110.637 Y94.869 E28.8168
G1 X111.238 Y95.44 E28.89477
G1 X111.663 Y95.875 E28.95196
G1 X112.288 Y96.578 E29.04044
G1 X112.758 Y97.168 E29.11138
G1 X113.197 Y97.775 E29.18184
G1 X113.572 Y98.346 E29.24609
G1 X113.938 Y98.955 E29.31291
G1 X114.143 Y99.604 E29.37693
G1 X114.176 Y100.091 E29.42284
G1 X114.15 Y100.337 E29.4461
G1 X113.995 Y100.901 E29.50111
G1 X113.788 Y101.318 E29.5449
G1 X113.068 Y102.421 E29.66879
G1 X112.489 Y103.179 E29.7585
G1 X111.744 Y104.05 E29.8663
G1 X110.919 Y104.865 E29.97537
G1 X110.492 Y105.249 E30.02938
G1 X109.804 Y105.81 E30.11287
G1 X109.159 Y106.283 E30.1881
G1 X108.451 Y106.747 E30.26772
G1 X107.671 Y107.199 E30.3525
G1 X106.922 Y107.581 E30.43158
G1 X106.273 Y107.873 E30.49852
G1 X105.307 Y108.247 E30.59594
G1 X104.525 Y108.497 E30.67316
G1 X103.954 Y108.652 E30.72881
G1 X103.341 Y108.793 E30.78797
G1 X102.755 Y108.905 E30.84408
G1 X102.001 Y109.021 E30.91583
G1 X100.895 Y109.121 E31.02028
G1 X99.81 Y109.139 E31.12234
G1 X98.266 Y109.056 E31.26777
G1 X75.365 Y107.654 E33.4257
G1 X74.583 Y107.392 E33.50327
G1 X74.018 Y106.991 E33.56843
G1 X73.614 Y106.532 E33.62594
G1 X73.272 Y105.859 E33.69694
G1 X73.103 Y105.17 E33.76367
G1 X73.103 Y95.05 E34.71548
G1 X73.174 Y94.49 E34.76857
G1 X73.423 Y93.786 E34.8388
G1 X73.755 Y93.28 E34.89573
G1 X73.927 Y93.097 E34.91935
G0 F3600 X72.713 Y91.508
G1 F1800 X73.251 Y91.097 E34.98302
G1 X73.619 Y90.874 E35.02349
G1 X74.35 Y90.569 E35.09799
G1 X75.185 Y90.351 E35.17916
G1 X99.402 Y88.878 E37.46104
G1 X100.042 Y88.864 E37.52125
G1 X100.592 Y88.872 E37.57298
G1 X101.68 Y88.933 E37.67547
G1 X102.611 Y89.048 E37.7637
G1 X103.408 Y89.181 E37.8397
G1 X104.101 Y89.327 E37.90631
G1 X104.708 Y89.479 E37.96516
G1 X105.427 Y89.688 E38.03558
G1 X106.244 Y89.966 E38.11675
G1 X107.015 Y90.269 E38.19467
G1 X107.558 Y90.509 E38.2505
G1 X108.44 Y90.94 E38.34283
G1 X109.308 Y91.434 E38.43677
G1 X110.122 Y91.949 E38.52736
G1 X110.988 Y92.578 E38.62803
G1 X112.015 Y93.419 E38.75287
G1 X112.669 Y94.042 E38.83783
G1 X113.094 Y94.477 E38.89502
G1 X113.783 Y95.249 E38.99235
G1 X114.379 Y95.996 E39.08222
G1 X114.869 Y96.677 E39.16113
G1 X115.244 Y97.248 E39.22538
G1 X115.652 Y97.925 E39.29973
G1 X115.845 Y98.353 E39.34388
G1 X116.05 Y99.002 E39.4079
G1 X116.138 Y99.469 E39.45259
G1 X116.165 Y100.301 E39.53088
G1 X116.078 Y100.867 E39.58474
G1 X115.867 Y101.634 E39.65956
G1 X115.463 Y102.411 E39.74193
G1 X114.743 Y103.514 E39.86582
G1 X114.009 Y104.479 E39.97985
G1 X113.15 Y105.473 E40.10341
G1 X112.325 Y106.288 E40.21248
G1 X111.756 Y106.799 E40.28441
G1 X110.987 Y107.423 E40.37755
G1 X110.255 Y107.956 E40.46272
G1 X109.454 Y108.477 E40.55259
G1 X108.58 Y108.981 E40.64748
G1 X107.831 Y109.363 E40.72655
G1 X107.094 Y109.697 E40.80266
G1 X105.916 Y110.152 E40.92143
G1 X105.049 Y110.427 E41.00698
G1 X104.402 Y110.601 E41.06999
G1 X103.789 Y110.742 E41.12915
G1 X103.059 Y110.882 E41.19906
G1 X102.181 Y111.013 E41.28255
G1 X100.928 Y111.121 E41.40084
G1 X99.703 Y111.136 E41.51606
G1 X98.144 Y111.052 E41.6629
G1 X75.243 Y109.65 E43.82084
G1 X74.73 Y109.55 E43.86999
G1 X73.948 Y109.288 E43.94756
G1 X73.425 Y109.023 E44.00271
G1 X72.86 Y108.622 E44.06787
G1 X72.517 Y108.312 E44.11135
G1 X72.113 Y107.853 E44.16886
G1 X71.831 Y107.438 E44.21605
G1 X71.489 Y106.765 E44.28706
G1 X71.33 Y106.335 E44.33017
G1 X71.161 Y105.646 E44.3969
G1 X71.103 Y105.17 E44.442
G1 X71.103 Y94.924 E45.40566
G1 X71.19 Y94.238 E45.4707
G1 X71.288 Y93.823 E45.51081
G1 X71.537 Y93.119 E45.58104
G1 X71.751 Y92.689 E45.62621
G1 X72.2 Y92.005 E45.70317
G1 X72.713 Y91.508 E45.77035
G1 F1500 E39.27035
;MESH:3DBenchy.stl
G0 F3600 X93.682 Y99.959
;TYPE:WALL-OUTER
G1 F1500 E45.77035
G1 F1446.9 X93.527 Y100.228 E45.80667
G1 X93.216 Y100.228 E45.84306
G1 X93.06 Y99.959 E45.87944
G1 X93.215 Y99.69 E45.91576
G1 X93.526 Y99.69 E45.95215
G1 X93.682 Y99.959 E45.98854
G1 F1500 E39.48854
G0 F3600 X74.658 Y101.312
G1 F1500 E45.98854
G1 F2117.6 X74.592 Y100.518 E46.05223
G1 X74.582 Y99.769 E46.11211
G1 X74.605 Y99.084 E46.16691
G1 F1500 E39.66691
G0 F3600 X79.17 Y95.13
G0 X79.862 Y97.658
G1 F1500 E46.16691
G1 F2117.6 X79.868 Y97.688 E46.16935
G0 F3600 X79.618 Y95.242
G0 X78.181 Y100.792
G1 F2013.4 X77.938 Y100.932 E46.19293
G1 X77.747 Y101.135 E46.21637
G1 X77.503 Y101.157 E46.23697
G1 X77.3 Y101.097 E46.25477
G1 X77.155 Y100.967 E46.27114
G1 X77.01 Y100.603 E46.30409
G1 X76.963 Y100.207 E46.33762
G1 X76.977 Y99.541 E46.39363
G1 X77.031 Y99.242 E46.41918
G1 X77.189 Y98.92 E46.44934
G1 X77.356 Y98.804 E46.46643
G1 X77.565 Y98.765 E46.48431
G1 X78.197 Y99.142 E46.54619
G1 F1842.4 X78.243 Y99.319 E46.56299
G1 F1582.4 X78.379 Y99.516 E46.5886
G1 F1381.4 X78.537 Y99.742 E46.6224
G1 F1213.8 X78.706 Y99.963 E46.6612
G1 X78.52 Y100.17 E46.70002
G1 F1381.4 X78.401 Y100.382 E46.72981
G1 F1707.8 X78.181 Y100.792 E46.77594
G0 F3600 X77.938 Y100.932
G0 X77.747 Y101.135
G0 X77.503 Y101.157
G0 X77.316 Y101.102
G0 X78.706 Y99.963
G1 F1142.9 X78.978 Y99.973 E46.81626
G0 F3600 X79.657 Y99.165
G1 F1841.4 X79.847 Y98.789 E46.85499
G1 F1948.1 X79.956 Y98.291 E46.89929
G1 F1919 X80.303 Y98.866 E46.95854
G1 F1815.4 X80.493 Y99.002 E46.98033
G1 F1794.6 X80.699 Y99.049 E47.00026
G1 X81.283 Y99.005 E47.05551
G1 X81.287 Y99.992 E47.14862
G1 F1725.8 X81.206 Y100.26 E47.17608
G1 F1527.4 X81.011 Y100.92 E47.25236
G1 F1353.4 X80.898 Y101.325 E47.30496
G1 F1256.1 X80.81 Y101.666 E47.35243
G1 F1251.7 X80.655 Y101.4 E47.39406
G1 F1348.3 X80.362 Y101.092 E47.44744
G1 F1527.4 X79.927 Y100.876 E47.50127
G1 F1725.8 X79.687 Y100.794 E47.52615
G1 F1652.9 X79.622 Y100.56 E47.55103
G1 F1438.8 X79.453 Y100.338 E47.58386
G1 F1279.3 X79.149 Y100.095 E47.63536
G1 F1175.7 X78.978 Y99.973 E47.6656
G1 X79.158 Y99.865 E47.69583
G1 F1273 X79.42 Y99.65 E47.74091
G1 F1430.8 X79.601 Y99.401 E47.77733
G1 F1652.9 X79.657 Y99.165 E47.80217
G0 F3600 X79.847 Y98.789
G0 X79.956 Y98.291
G0 X79.991 Y98.35
G0 X80.621 Y103.807
G0 X80.81 Y101.666
G1 F1219.1 X80.812 Y102.321 E47.89313
G0 F3600 X80.617 Y103.887
G0 X81.915 Y104.864
G0 X82.973 Y105.005
G0 X84.273 Y104.556
G0 X84.732 Y102.47
G1 F1195.2 X84.741 Y101.679 E48.00518
G0 F3600 X84.785 Y103.953
G0 X87.674 Y101.161
G1 F2111.4 X87.414 Y101.003 E48.02957
G1 F2117.6 X86.861 Y100.864 E48.07516
G0 F3600 X86.008 Y100.163
G1 F1956.5 X86.144 Y100.375 E48.09695
G1 F2038.5 X86.597 Y100.772 E48.14697
G1 F2100.4 X86.861 Y100.864 E48.16951
G1 F2085.7 X86.356 Y100.867 E48.2105
G1 F2023.6 X85.99 Y100.969 E48.24229
G1 F1956.5 X85.7 Y101.133 E48.27111
G1 F1616.5 X85.127 Y101.31 E48.33392
G1 F1349.3 X84.963 Y101.453 E48.36122
G1 F1244.8 X84.741 Y101.679 E48.4043
G1 X84.607 Y101.374 E48.44961
G1 F1349.3 X84.519 Y101.176 E48.4768
G1 F1616.5 X84.167 Y100.409 E48.56518
G1 F1944.9 X84.145 Y99.777 E48.62022
G1 F1969.4 X84.146 Y98.921 E48.69381
G1 X85.02 Y98.868 E48.76908
G1 F1989 X85.325 Y98.619 E48.80259
G1 F2045.5 X85.616 Y98.09 E48.85257
G1 F2078.5 X85.646 Y97.937 E48.86526
G1 F2056 X85.791 Y98.502 E48.9133
G1 F2020.2 X85.916 Y98.754 E48.93687
G1 F2022.5 X86.161 Y98.812 E48.95794
G1 F2072.5 X86.695 Y98.802 E49.00157
G1 F2110.2 X86.877 Y98.741 E49.01697
G1 F2095.5 X86.465 Y98.982 E49.05553
G1 F2059.5 X86.291 Y99.15 E49.07542
G1 F2005.6 X85.971 Y99.61 E49.12272
G1 F1944.9 X86.008 Y100.163 E49.17096
G0 F3600 X86.144 Y100.375
G0 X86.597 Y100.772
G0 X86.734 Y100.819
G0 X85.824 Y95.268
G0 X85.673 Y97.578
G1 F2117.6 X85.676 Y97.664 E49.17784
G1 X86.877 Y98.741 E49.30681
G1 X87.558 Y98.474 E49.36528
G1 X87.665 Y98.422 E49.37479
G0 F3600 X88.396 Y94.885
G0 X90.247 Y97.629
G1 F2117.6 X90.295 Y98.296 E49.42825
G1 F2096.7 X90.254 Y98.944 E49.48068
G1 F1966.1 X90.157 Y99.461 E49.52597
G1 F1984.6 X90.284 Y99.991 E49.57247
G1 F2117.6 X90.392 Y100.784 E49.63645
G1 X90.416 Y101.319 E49.67926
G1 X90.391 Y101.717 E49.71114
G1 F1500 E43.21114
G0 F3600 X90.011 Y104.522
G0 X100.438 Y106.06
G0 X101.838 Y106.523
G1 F1500 E49.71114
G1 F1523.5 X102.397 Y106.717 E49.77689
G1 F1579.6 X102.781 Y106.735 E49.81809
G1 X102.394 Y106.78 E49.85985
G1 F1523.5 X101.767 Y106.824 E49.9297
G1 F1465.8 X101.315 Y106.827 E49.9819
G1 F1420.7 X99.83 Y106.848 E50.15888
G1 F1408.5 X99.018 Y106.844 E50.25648
G1 F1419.6 X98.264 Y106.783 E50.3467
G1 F1466.4 X97.525 Y106.815 E50.43209
G1 F1534.5 X96.98 Y106.815 E50.49222
G1 F1559.8 X96.18 Y106.77 E50.57919
G1 F1530.6 X95.327 Y106.669 E50.67419
G1 F1443.5 X94.56 Y106.53 E50.76562
G1 F1418.4 X93.915 Y106.539 E50.84261
G1 F1464.6 X93.023 Y106.515 E50.94575
G1 F1490.7 X90.953 Y106.426 E51.18105
G1 F1460.4 X89.946 Y106.276 E51.29907
G1 F1491.3 X89.159 Y106.328 E51.38861
G1 F1594.3 X88.32 Y106.333 E51.4777
G1 F1642.3 X87.145 Y106.284 E51.59893
G1 F1631.9 X86.154 Y106.186 E51.70224
G1 F1572.7 X85.556 Y106.102 E51.76724
G1 F1470.6 X84.726 Y105.94 E51.86459
G1 F1453.4 X84.211 Y105.99 E51.92486
G1 F1555.1 X83.695 Y106.039 E51.98129
G1 F1657.5 X82.932 Y106.056 E52.05924
G1 F1708.6 X82.176 Y106.011 E52.13429
G1 F1671.3 X81.401 Y105.915 E52.21339
G1 F1541.8 X80.505 Y105.727 E52.31392
G1 F1530.6 X79.851 Y105.802 E52.38673
G1 F1652.9 X79.423 Y105.837 E52.43071
G1 F1755.2 X78.794 Y105.863 E52.49143
G1 F1849.9 X78.2 Y105.868 E52.54579
G1 F1911.8 X77.326 Y105.837 E52.62323
G1 F1927.2 X76.71 Y105.791 E52.6775
G1 F1882.8 X75.99 Y105.71 E52.74264
G1 F1847.1 X75.741 Y105.695 E52.76551
G1 X75.466 Y105.603 E52.79209
G1 X75.259 Y105.434 E52.81658
G1 X75.157 Y105.256 E52.83538
G1 X75.074 Y104.928 E52.86639
G1 X75.074 Y103.249 E53.02028
G1 F1886.8 X74.938 Y102.622 E53.07785
G1 F1929.3 X74.938 Y102.581 E53.08144
G1 F1886.8 X75.267 Y103.159 E53.14112
G1 F1847.1 X75.522 Y103.371 E53.17151
G1 X76.139 Y103.746 E53.23769
G1 F1868.2 X76.694 Y103.898 E53.28984
G1 F1898.7 X77.466 Y103.986 E53.35911
G1 F1885.8 X78.264 Y103.965 E53.43078
G1 F1809 X78.799 Y103.885 E53.4814
G1 F1679.9 X79.296 Y103.757 E53.53312
G1 F1490.1 X79.835 Y103.539 E53.59918
G1 F1353.9 X80.379 Y103.045 E53.69107
G1 F1285.7 X80.699 Y102.568 E53.7667
G1 F1236.3 X80.812 Y102.321 E53.80389
G1 F1239.2 X80.845 Y102.655 E53.84974
G1 F1288.5 X80.999 Y103.114 E53.91336
G1 F1387.3 X81.482 Y103.654 E54.00177
G1 F1551.1 X82.072 Y103.865 E54.07016
G1 F1680.7 X82.879 Y103.957 E54.15198
G1 F1657.5 X83.403 Y103.869 E54.20625
G1 F1502.5 X83.923 Y103.738 E54.26667
G1 F1355.4 X84.362 Y103.33 E54.34153
G1 F1288.9 X84.498 Y103.123 E54.37406
G1 F1235.4 X84.732 Y102.47 E54.46911
G1 F1212.9 X84.798 Y102.696 E54.50198
