;FLAVOR:Marlin
;TIME:3933
;Filament used: 3.74708m
;Layer height: 0.2
;MINX:69.889
;MINY:84.686
;MINZ:0.3
;MAXX:129.782
;MAXY:115.306
;MAXZ:47.9
;TARGET_MACHINE.NAME:Unknown
;ZAA_APPLIED
;Generated with Cura_SteamEngine 5.12.0
M140 S65
M105
M190 S65
M104 S190
M105
M109 S190
M203 Z3              ; Limitar velocidade maxima do eixo Z a 3mm/s
G28 Z                ; Home apenas eixo Z
G1 Z10 F180          ; Levantar Z antes de mover XY
G28 X Y              ; Home eixos X e Y
G1 X10 Y10 F3000     ; Mover para frente da mesa (Y baixo = frente)
G1 Z0.3 F180         ; Baixar bico para altura de purga
G92 E0               ; Zerar extrusor
G1 X150 Y10 E15 F800 ; Linha de purga na frente da mesa
G92 E0               ; Zerar extrusor novamente
G1 Z0.2 F180         ; Altura da primeira camada
M82 ;absolute extrusion mode
G92 E0
G92 E0
;LAYER_COUNT:239
;LAYER:0
M107
G0 F3600 X72.063 Y90.345 Z0.3
;TYPE:SKIRT
G1 F1800 X72.523 Y90.013 E0.0283
G1 X73.193 Y89.618 E0.06711
G1 X74.385 Y89.244 E0.12943
G1 X75.084 Y89.121 E0.16484
G1 X75.84 Y89.061 E0.20268
G1 X98.431 Y87.604 E1.33209
G1 X99.54 Y87.553 E1.38748
G1 X100.348 Y87.549 E1.42779
G1 X101.575 Y87.601 E1.48906
G1 X103.066 Y87.784 E1.564
G1 X104.23 Y88.002 E1.62308
G1 X105.536 Y88.339 E1.69037
G1 X106.226 Y88.551 E1.72639
G1 X107.062 Y88.846 E1.77062
G1 X108.106 Y89.273 E1.82689
G1 X109.074 Y89.759 E1.88093
G1 X110.246 Y90.404 E1.94767
G1 X111.218 Y91.045 E2.00576
G1 X111.694 Y91.391 E2.03512
G1 X112.759 Y92.229 E2.10273
G1 X113.167 Y92.592 E2.12997
G1 X113.94 Y93.332 E2.18336
G1 X114.652 Y94.074 E2.23466
G1 X115.061 Y94.554 E2.26613
G1 X115.725 Y95.392 E2.31947
G1 X116.097 Y95.895 E2.35068
G1 X116.659 Y96.727 E2.40077
G1 X117.038 Y97.385 E2.43865
G1 X117.464 Y98.376 E2.49247
G1 X117.634 Y99.052 E2.52725
G1 X117.708 Y99.673 E2.55845
G1 X117.724 Y100.399 E2.59468
G1 X117.534 Y101.364 E2.64374
G1 X117.261 Y102.21 E2.68809
G1 X116.795 Y103.044 E2.73576
G1 X116.169 Y103.998 E2.79268
G1 X115.748 Y104.584 E2.82868
G1 X115.114 Y105.385 E2.87965
G1 X114.64 Y105.924 E2.91546
G1 X113.665 Y106.954 E2.98622
G1 X112.666 Y107.847 E3.05307
G1 X111.732 Y108.588 E3.11255
G1 X111.078 Y109.062 E3.15284
G1 X110.125 Y109.656 E3.20887
G1 X108.823 Y110.377 E3.28312
G1 X108.252 Y110.656 E3.31483
G1 X107.225 Y111.086 E3.37037
G1 X106.024 Y111.515 E3.434
G1 X104.822 Y111.864 E3.49644
G1 X103.636 Y112.123 E3.55701
G1 X102.365 Y112.316 E3.62115
G1 X101.412 Y112.409 E3.66892
G1 X100.35 Y112.451 E3.72194
G1 X99.421 Y112.443 E3.76829
G1 X98.175 Y112.38 E3.83053
G1 X75.772 Y110.934 E4.95055
G1 X74.692 Y110.835 E5.00466
G1 X73.85 Y110.614 E5.04809
G1 X73.044 Y110.293 E5.09137
G1 X72.183 Y109.762 E5.14184
G1 X71.478 Y109.155 E5.18825
G1 X70.966 Y108.497 E5.22985
G1 X70.588 Y107.943 E5.26331
G1 X70.238 Y107.078 E5.30986
G1 X70.008 Y106.192 E5.35553
G1 X69.913 Y105.453 E5.3927
G1 X69.889 Y104.156 E5.45742
G1 X69.893 Y95.374 E5.89556
G1 X69.915 Y94.362 E5.94606
G1 X70.045 Y93.58 E5.98561
G1 X70.232 Y92.937 E6.01901
G1 X70.505 Y92.281 E6.05446
G1 X70.885 Y91.614 E6.09276
G1 X71.487 Y90.835 E6.14188
G1 X72.063 Y90.345 E6.17961
G0 F3600 X72.298 Y90.669
G1 F1800 X72.726 Y90.358 E6.206
G1 X73.359 Y89.985 E6.24266
G1 X74.455 Y89.638 E6.30001
G1 X75.116 Y89.52 E6.33351
G1 X75.866 Y89.46 E6.37105
G1 X98.45 Y88.004 E7.50011
G1 X99.542 Y87.953 E7.55465
G1 X100.331 Y87.949 E7.59401
G1 X101.558 Y88.001 E7.65528
G1 X103.017 Y88.181 E7.72862
G1 X104.13 Y88.389 E7.78511
G1 X105.419 Y88.721 E7.85152
G1 X106.093 Y88.928 E7.8867
G1 X106.911 Y89.216 E7.92996
G1 X107.927 Y89.631 E7.98472
G1 X108.882 Y90.11 E8.03802
G1 X110.026 Y90.738 E8.10313
G1 X110.983 Y91.369 E8.16032
G1 X111.459 Y91.715 E8.18967
G1 X112.493 Y92.528 E8.2553
G1 X112.89 Y92.881 E8.2818
G1 X113.663 Y93.621 E8.33519
G1 X114.348 Y94.334 E8.38452
G1 X114.747 Y94.802 E8.4152
G1 X115.403 Y95.63 E8.4679
G1 X115.775 Y96.133 E8.49911
G1 X116.312 Y96.927 E8.54694
G1 X116.691 Y97.585 E8.58482
G1 X117.076 Y98.474 E8.63315
G1 X117.246 Y99.15 E8.66793
G1 X117.308 Y99.682 E8.69465
G1 X117.323 Y100.364 E8.72868
G1 X117.153 Y101.241 E8.77325
G1 X116.891 Y102.052 E8.81577
G1 X116.46 Y102.825 E8.85993
G1 X115.844 Y103.765 E8.916
G1 X115.434 Y104.336 E8.95107
G1 X114.8 Y105.137 E9.00203
G1 X114.349 Y105.649 E9.03607
G1 X113.398 Y106.656 E9.10517
G1 X112.417 Y107.534 E9.17086
G1 X111.497 Y108.264 E9.22945
G1 X110.843 Y108.738 E9.26974
G1 X109.931 Y109.306 E9.32335
G1 X108.647 Y110.018 E9.3966
G1 X108.097 Y110.287 E9.42714
G1 X107.09 Y110.709 E9.48161
G1 X105.889 Y111.138 E9.54524
G1 X104.737 Y111.473 E9.60509
G1 X103.551 Y111.732 E9.66566
G1 X102.326 Y111.918 E9.72747
G1 X101.396 Y112.009 E9.77409
G1 X100.354 Y112.051 E9.82612
G1 X99.441 Y112.043 E9.87167
G1 X98.201 Y111.981 E9.93361
G1 X75.806 Y110.535 E11.05323
G1 X74.794 Y110.448 E11.10391
G1 X73.952 Y110.227 E11.14734
G1 X73.252 Y109.952 E11.18486
G1 X72.444 Y109.459 E11.23208
G1 X71.771 Y108.88 E11.27637
G1 X71.282 Y108.251 E11.31612
G1 X70.943 Y107.753 E11.34618
G1 X70.609 Y106.928 E11.39058
G1 X70.405 Y106.139 E11.43124
G1 X70.313 Y105.446 E11.46612
G1 X70.289 Y104.156 E11.53049
G1 X70.293 Y95.381 E11.96827
G1 X70.31 Y94.428 E12.01583
G1 X70.44 Y93.646 E12.05538
G1 X70.602 Y93.089 E12.08432
G1 X70.853 Y92.479 E12.11722
G1 X71.233 Y91.812 E12.15552
G1 X71.777 Y91.114 E12.19967
G1 X72.298 Y90.669 E12.23386
G0 F3600 X72.533 Y90.993
G1 F1800 X72.961 Y90.682 E12.26025
G1 X73.522 Y90.353 E12.2927
G1 X74.526 Y90.032 E12.34529
G1 X75.148 Y89.919 E12.37683
G1 X75.892 Y89.859 E12.41406
G1 X98.469 Y88.404 E13.54277
G1 X99.544 Y88.353 E13.59646
G1 X100.314 Y88.349 E13.63488
G1 X101.541 Y88.401 E13.69615
G1 X102.968 Y88.578 E13.76789
G1 X104.03 Y88.776 E13.82179
G1 X105.302 Y89.103 E13.88731
G1 X105.96 Y89.305 E13.92165
G1 X106.76 Y89.586 E13.96395
G1 X107.748 Y89.989 E14.01719
G1 X108.69 Y90.461 E14.06975
G1 X109.806 Y91.072 E14.13323
G1 X110.748 Y91.693 E14.18952
G1 X111.212 Y92.03 E14.21813
G1 X112.227 Y92.827 E14.28251
G1 X112.613 Y93.17 E14.30828
G1 X113.386 Y93.91 E14.36166
G1 X114.044 Y94.594 E14.40901
G1 X114.434 Y95.051 E14.43899
G1 X115.082 Y95.868 E14.49101
G1 X115.444 Y96.357 E14.52137
G1 X115.965 Y97.127 E14.56775
G1 X116.344 Y97.785 E14.60563
G1 X116.689 Y98.573 E14.64855
G1 X116.849 Y99.197 E14.68069
G1 X116.908 Y99.691 E14.70551
G1 X116.922 Y100.329 E14.73735
G1 X116.76 Y101.165 E14.77983
G1 X116.523 Y101.889 E14.81784
G1 X116.125 Y102.606 E14.85875
G1 X115.519 Y103.532 E14.91396
G1 X115.12 Y104.088 E14.9481
G1 X114.499 Y104.873 E14.99804
G1 X114.058 Y105.375 E15.03138
G1 X113.131 Y106.358 E15.09879
G1 X112.15 Y107.236 E15.16447
G1 X111.262 Y107.94 E15.221
G1 X110.608 Y108.414 E15.2613
G1 X109.737 Y108.956 E15.31248
G1 X108.471 Y109.659 E15.38473
G1 X107.942 Y109.918 E15.41411
G1 X106.955 Y110.332 E15.46751
G1 X105.754 Y110.761 E15.53114
G1 X104.652 Y111.082 E15.5884
G1 X103.466 Y111.341 E15.64897
G1 X102.287 Y111.52 E15.70846
G1 X101.38 Y111.609 E15.75393
G1 X100.357 Y111.651 E15.80501
G1 X99.461 Y111.644 E15.84971
G1 X98.227 Y111.582 E15.91135
G1 X75.84 Y110.136 E17.03057
G1 X74.828 Y110.049 E17.08125
G1 X74.095 Y109.853 E17.1191
G1 X73.458 Y109.609 E17.15313
G1 X72.705 Y109.156 E17.19698
G1 X72.062 Y108.603 E17.23929
G1 X71.598 Y108.006 E17.27701
G1 X71.299 Y107.565 E17.30359
G1 X70.98 Y106.778 E17.34596
G1 X70.801 Y106.085 E17.38167
G1 X70.713 Y105.439 E17.41419
G1 X70.689 Y104.156 E17.47821
G1 X70.693 Y95.386 E17.91575
G1 X70.705 Y94.494 E17.96026
G1 X70.835 Y93.712 E17.99981
G1 X70.973 Y93.239 E18.02439
G1 X71.202 Y92.675 E18.05476
G1 X71.549 Y92.058 E18.09007
G1 X72.069 Y91.39 E18.13231
G1 X72.533 Y90.993 E18.16277
;MESH:3DBenchy.stl
G0 F3600 X92.547 Y98.48
G0 X93.682 Y100.351
G0 X93.985 Y100.391
;TYPE:WALL-INNER
G1 F1800 X94.018 Y99.963 E18.18419
G1 X93.971 Y99.403 E18.21223
G1 X93.86 Y99.025 E18.23188
G1 X93.686 Y98.781 E18.24683
G1 X93.564 Y98.715 E18.25375
G1 X92.721 Y98.617 E18.29609
G1 X92.725 Y101.279 E18.4289
G1 X93.127 Y101.269 E18.44896
G1 X93.568 Y101.185 E18.47136
G1 X93.769 Y101.014 E18.48453
G1 X93.87 Y100.828 E18.49509
G1 X93.985 Y100.391 E18.51763
G0 F3600 X93.682 Y100.351
G0 X93.097 Y100.963
G0 X93.17 Y101.668
;TYPE:WALL-OUTER
G1 F1800 X93.709 Y101.565 E18.54501
G1 X93.91 Y101.449 E18.55659
G1 X94.096 Y101.25 E18.57018
G1 X94.244 Y100.977 E18.58567
G1 X94.381 Y100.458 E18.61245
G1 X94.419 Y99.961 E18.63732
G1 X94.366 Y99.329 E18.66896
G1 X94.23 Y98.867 E18.69298
G1 X94.091 Y98.622 E18.70704
G1 X93.93 Y98.458 E18.7185
G1 X93.686 Y98.327 E18.73232
G1 X92.814 Y98.226 E18.77612
G1 X92.347 Y98.274 E18.79954
G1 X92.32 Y98.308 E18.8017
G1 X92.329 Y101.555 E18.9637
G1 X92.401 Y101.687 E18.9712
G1 X93.17 Y101.668 E19.00958
G0 F3600 X93.366 Y101.631
G0 X93.232 Y100.936
G0 X93.603 Y99.964
;TYPE:SKIN
G1 F1572.1 X93.58 Y100.322 E19.03007
G1 F1592.9 X93.492 Y100.659 E19.0497
G1 X93.384 Y100.8 E19.05972
G1 X93.134 Y100.835 E19.07395
G1 F1600 X93.126 Y99.071 E19.17296
G1 F1607.1 X93.436 Y99.115 E19.19045
G1 X93.571 Y99.481 E19.21225
G1 F1578.9 X93.603 Y99.964 E19.23978
G0 F3600 X93.408 Y99.95
G0 X92.537 Y99.868
G0 X90.714 Y99.87
G0 X90.392 Y100.78
;TYPE:WALL-INNER
G1 F1126.8 X90.416 Y101.319 E19.28278
G1 X90.393 Y101.713 E19.31424
G0 F3600 X90.275 Y102.5
G0 X90.694 Y97.14
G0 X91.315 Y96.633
G0 X93.542 Y96.556
G0 X94.557 Y96.907
G0 X97.777 Y99.159
G0 X98.081 Y99.068
G1 F1800 X98.098 Y98.652 E19.33501
G1 X98.159 Y98.463 E19.34492
G1 X98.378 Y98.169 E19.36321
G1 X98.672 Y97.979 E19.38067
G1 X99.103 Y97.881 E19.40272
G1 X99.615 Y97.989 E19.42883
G1 X100.05 Y98.381 E19.45804
G1 X100.176 Y98.549 E19.46852
G1 X100.559 Y98.139 E19.49651
G1 X100.973 Y97.921 E19.51985
G1 X101.164 Y97.88 E19.5296
G1 X101.544 Y97.935 E19.54875
G1 X101.98 Y98.249 E19.57556
G1 X102.165 Y98.616 E19.59607
G1 X102.322 Y98.237 E19.61653
G1 X102.719 Y97.947 E19.64106
G1 X103.307 Y97.899 E19.67049
G1 X103.748 Y98.054 E19.69381
G1 X104.077 Y98.347 E19.71579
G1 X104.264 Y98.709 E19.73612
G1 X104.422 Y99.274 E19.76539
G1 X104.535 Y99.558 E19.78064
G1 X104.805 Y98.8 E19.82078
G1 X104.97 Y98.479 E19.83879
G1 X105.379 Y98.034 E19.86894
G1 X105.66 Y97.91 E19.88427
G1 X106.084 Y97.906 E19.90542
G1 X106.459 Y98.094 E19.92635
G1 X106.77 Y98.463 E19.95043
G1 X106.933 Y98.209 E19.96548
G1 X107.328 Y97.966 E19.98862
G1 X107.868 Y97.879 E20.01591
G1 X110.064 Y97.885 E20.12547
G1 F1655.2 X110.537 Y97.985 E20.1517
G1 F1451.6 X110.691 Y98.055 E20.16216
G1 F1379.3 X111.013 Y98.472 E20.19646
G1 F1561.8 X111.051 Y98.973 E20.22535
G1 F1800 X111.015 Y99.371 E20.24529
G1 X110.804 Y99.88 E20.27278
G1 X109.678 Y101.475 E20.37019
G1 X110.126 Y101.518 E20.39264
G1 X110.453 Y101.602 E20.40948
G1 X110.75 Y101.757 E20.4262
G1 X110.941 Y101.962 E20.44018
G1 X111.059 Y102.171 E20.45215
G1 X111.104 Y102.354 E20.46155
G1 X111.776 Y101.47 E20.51695
G1 X112.425 Y100.472 E20.57634
G1 X112.574 Y100.045 E20.59891
G1 X112.517 Y99.698 E20.61645
G1 X112.197 Y99.166 E20.64742
G1 X111.779 Y98.534 E20.68523
G1 F1561.8 X111.46 Y98.207 E20.71149
G1 F1379.3 X111.038 Y97.676 E20.75565
G1 F1561.8 X110.659 Y97.141 E20.79335
G1 F1800 X110.079 Y96.544 E20.83488
G1 X109.549 Y96.045 E20.8712
G1 X108.735 Y95.389 E20.92335
G1 X108.029 Y94.879 E20.9668
G1 X107.41 Y94.494 E21.00317
G1 X106.685 Y94.081 E21.0448
G1 X105.814 Y93.665 E21.09296
G1 X104.994 Y93.34 E21.13696
G1 X104.316 Y93.113 E21.17263
G1 X103.53 Y92.883 E21.21349
G1 X102.681 Y92.706 E21.25676
G1 X101.991 Y92.591 E21.29166
G1 X101.262 Y92.507 E21.32827
G1 X100.494 Y92.468 E21.36663
G1 X99.958 Y92.465 E21.39338
G1 X99.448 Y92.478 E21.41883
G1 X75.668 Y93.927 E22.60742
G1 X75.255 Y94.077 E22.62934
G1 X74.998 Y94.289 E22.64596
G1 X74.876 Y94.453 E22.65616
G1 X74.75 Y94.765 E22.67294
G1 X74.7 Y95.154 E22.69251
G1 X74.699 Y98.346 E22.85176
G1 X74.824 Y97.988 E22.87068
G1 X75.192 Y97.403 E22.90516
G1 X75.63 Y96.937 E22.93707
G1 X76.269 Y96.55 E22.97434
G1 X76.756 Y96.372 E23.0002
G1 X77.499 Y96.272 E23.03761
G1 X78.15 Y96.303 E23.07012
G1 X78.804 Y96.492 E23.10409
G1 X79.247 Y96.753 E23.12974
G1 X79.685 Y97.16 E23.15957
G1 X79.81 Y97.387 E23.1725
G1 X79.891 Y97.049 E23.18984
G1 X80.068 Y96.769 E23.20636
G1 X80.392 Y96.522 E23.22669
G1 X80.779 Y96.417 E23.24669
G1 X81.493 Y96.455 E23.28237
G1 X82.112 Y96.444 E23.31325
G1 X84.848 Y96.444 E23.44975
G1 X85.107 Y96.502 E23.46299
G1 X85.485 Y96.746 E23.48544
G1 X85.689 Y97.09 E23.50539
G1 X85.711 Y97.204 E23.51119
G1 X85.996 Y96.849 E23.5339
G1 X86.354 Y96.593 E23.55586
G1 X86.768 Y96.418 E23.57828
G1 X87.355 Y96.285 E23.60831
G1 X88.048 Y96.28 E23.64288
G1 X88.519 Y96.345 E23.6666
G1 X89.027 Y96.521 E23.69343
G1 X89.452 Y96.788 E23.71847
G1 X89.744 Y97.11 E23.74015
G1 F1690.1 X90.037 Y97.695 E23.77492
G1 F1636.4 X90.08 Y98.294 E23.80787
G1 F1614.3 X90.016 Y98.997 E23.84714
G1 F1400.8 X89.887 Y99.369 E23.87238
G1 F1276.6 X89.802 Y99.472 E23.88178
G1 X90.091 Y99.922 E23.9194
G1 F1174.6 X90.392 Y100.78 E23.98892
G1 F1118 X90.41 Y100.639 E24.00034
G1 F1208.1 X90.44 Y99.998 E24.04804
G1 F1276.6 X90.439 Y99.461 E24.08581
G1 F1395.3 X90.488 Y98.944 E24.11924
G1 F1568.6 X90.52 Y98.004 E24.17308
G1 F1607.1 X90.471 Y97.557 E24.19821
G1 F1702.1 X90.593 Y97.017 E24.22741
G1 F1800 X90.849 Y96.703 E24.24763
G1 X91.308 Y96.48 E24.27309
G1 X91.655 Y96.433 E24.29056
G1 X93.387 Y96.461 E24.37698
G1 X94.144 Y96.595 E24.41533
G1 X94.683 Y96.806 E24.44421
G1 X95.095 Y97.082 E24.46895
G1 X95.359 Y97.333 E24.48712
G1 X95.642 Y97.705 E24.51044
G1 X95.914 Y98.211 E24.5391
G1 X96.111 Y98.854 E24.57265
G1 X96.21 Y99.576 E24.60901
G1 X96.205 Y100.487 E24.65446
G1 X96.124 Y100.907 E24.6758
G1 X96.536 Y100.78 E24.69731
G1 X97.062 Y100.792 E24.72356
G1 X97.606 Y101.01 E24.7528
G1 X97.802 Y101.149 E24.76479
G1 X98.046 Y101.409 E24.78258
G1 X98.263 Y101.857 E24.80741
G1 X98.745 Y101.029 E24.85521
G1 X98.929 Y100.772 E24.87098
G1 X98.201 Y99.499 E24.94414
G1 X98.081 Y99.068 E24.96646
G0 F3600 X97.777 Y99.159
G0 X98.312 Y102.077
G0 X98.167 Y102.902
G0 X102.451 Y106.48
G0 X102.559 Y106.188
G1 F1800 X102.172 Y106.019 E24.98753
G1 X101.868 Y105.682 E25.01017
G1 X101.695 Y105.184 E25.03647
G1 X101.741 Y104.685 E25.06148
G1 F1451.6 X102.058 Y104.171 E25.09883
G1 F1224.5 X102.171 Y104.107 E25.10836
G1 F1460.4 X102.771 Y104.011 E25.14572
G1 F1800 X102.976 Y103.858 E25.15848
G1 X103.206 Y103.24 E25.19138
G1 X103.455 Y102.721 E25.2201
G1 X103.207 Y102.154 E25.25098
G1 X102.494 Y100.246 E25.3526
G1 X102.142 Y99.38 E25.39923
G1 X101.68 Y100.182 E25.44541
G1 X101.405 Y100.636 E25.47189
G1 X101.392 Y100.721 E25.47618
G1 X101.854 Y101.548 E25.52344
G1 X102.168 Y102.059 E25.55336
G1 X102.278 Y102.456 E25.57392
G1 X102.261 Y102.922 E25.59718
G1 X102.192 Y103.102 E25.6068
G1 F1460.4 X101.882 Y103.599 E25.64282
G1 F1224.5 X101.802 Y103.641 E25.64944
G1 F1451.6 X101.35 Y103.689 E25.67756
G1 F1800 X100.959 Y103.671 E25.69709
G1 X100.668 Y103.548 E25.71285
G1 X100.283 Y103.151 E25.74044
G1 X100.111 Y102.851 E25.75769
G1 X99.935 Y103.137 E25.77445
G1 X99.605 Y103.476 E25.79805
G1 X99.432 Y103.591 E25.80842
G1 X99.019 Y103.68 E25.82949
G1 X98.608 Y103.584 E25.85055
G1 X98.244 Y103.319 E25.87301
G1 X98.156 Y103.184 E25.88105
G1 X97.744 Y103.634 E25.91149
G1 X97.419 Y103.824 E25.93027
G1 X96.856 Y103.957 E25.95913
G1 X96.306 Y103.894 E25.98675
G1 X95.919 Y103.719 E26.00794
G1 X95.644 Y103.506 E26.0253
G1 X95.383 Y103.17 E26.04652
G1 X95.215 Y102.688 E26.07199
G1 X94.817 Y103.013 E26.09762
G1 X94.491 Y103.192 E26.11618
G1 X93.836 Y103.417 E26.15073
G1 X92.961 Y103.483 E26.19451
G1 X92.032 Y103.477 E26.24086
G1 X91.32 Y103.506 E26.27641
G1 X90.954 Y103.328 E26.29671
G1 X90.845 Y103.234 E26.3039
G1 X90.635 Y102.91 E26.32316
G1 X90.516 Y102.373 E26.3506
G1 X90.513 Y102.241 E26.35719
G1 F1355.9 X90.393 Y101.713 E26.39305
G1 X90.109 Y102.17 E26.42868
G1 F1800 X89.83 Y102.669 E26.4572
G1 X89.487 Y103.047 E26.48267
G1 X89.119 Y103.318 E26.50547
G1 X88.616 Y103.533 E26.53276
G1 X88.204 Y103.625 E26.55382
G1 X87.265 Y103.635 E26.60067
G1 X86.532 Y103.453 E26.63835
G1 X86.103 Y103.194 E26.66335
G1 X85.865 Y102.949 E26.68039
G1 X85.642 Y102.483 E26.70617
G1 X85.629 Y101.89 E26.73576
G1 X85.745 Y101.607 E26.75102
G1 X85.911 Y101.391 E26.76461
