;FLAVOR:Marlin
;TIME:196
;Filament used: 0.719352m
;Layer height: 0.6
;MINX:43
;MINY:82
;MINZ:0.3
;MAXX:153.249
;MAXY:118
;MAXZ:3.9
;TARGET_MACHINE.NAME:Unknown
;ZAA_APPLIED
;Generated with Cura_SteamEngine 5.12.0
M104 S200
M105
M109 S200
G28 ;Home
G1 Z15.0 F6000 ;Move the platform down 15mm
;Prime the extruder
G92 E0
G1 F200 E3
G92 E0
M82 ;absolute extrusion mode
G92 E0
G92 E0
G1 F1500 E-6.5
;LAYER_COUNT:7
;LAYER:0
M107
G0 F3600 X46.694 Y82.839 Z0.3
;TYPE:SKIRT
G1 F1500 E0
G1 F1800 X45.864 Y83.341 E0.09123
G1 X44.908 Y84.186 E0.21123
G1 X44.312 Y84.936 E0.30134
G1 X43.768 Y85.793 E0.39681
G1 X43.407 Y86.677 E0.48661
G1 X43.119 Y87.668 E0.58368
G1 X43 Y88.781 E0.68895
G1 X43 Y111.411 E2.81737
G1 X43.185 Y112.654 E2.93556
G1 X43.518 Y113.621 E3.03175
G1 X43.839 Y114.306 E3.1029
G1 X44.341 Y115.136 E3.19414
G1 X45.186 Y116.092 E3.31414
G1 X45.936 Y116.688 E3.40424
G1 X46.793 Y117.232 E3.49971
G1 X47.677 Y117.593 E3.58952
G1 X48.668 Y117.881 E3.68658
G1 X49.781 Y118 E3.79186
G1 X146.66 Y118 E12.9036
G1 X147.892 Y117.817 E13.02074
G1 X148.941 Y117.458 E13.12502
G1 X149.591 Y117.14 E13.19308
G1 X150.376 Y116.666 E13.27933
G1 X151.341 Y115.815 E13.40034
G1 X151.937 Y115.064 E13.49051
G1 X152.481 Y114.207 E13.58598
G1 X152.842 Y113.323 E13.67579
G1 X153.13 Y112.332 E13.77285
G1 X153.249 Y111.219 E13.87813
G1 X153.249 Y88.589 E16.00655
G1 X153.064 Y87.346 E16.12474
G1 X152.731 Y86.379 E16.22093
G1 X152.41 Y85.694 E16.29208
G1 X151.908 Y84.864 E16.38331
G1 X151.063 Y83.908 E16.50332
G1 X150.313 Y83.312 E16.59342
G1 X149.456 Y82.768 E16.68889
G1 X148.572 Y82.407 E16.77869
G1 X147.581 Y82.119 E16.87576
G1 X146.468 Y82 E16.98103
G1 X49.589 Y82 E26.09277
G1 X48.346 Y82.185 E26.21097
G1 X47.379 Y82.518 E26.30716
G1 X46.694 Y82.839 E26.37831
G0 F3600 X47.632 Y84.609
G1 F1800 X48.137 Y84.372 E26.43078
G1 X48.823 Y84.136 E26.49901
G1 X49.736 Y84 E26.58583
G1 X146.358 Y84 E35.67339
G1 X147.198 Y84.09 E35.75285
G1 X147.91 Y84.297 E35.82259
G1 X148.534 Y84.552 E35.88599
G1 X149.152 Y84.944 E35.95482
G1 X149.681 Y85.364 E36.01835
G1 X150.291 Y86.055 E36.10504
G1 X150.64 Y86.632 E36.16846
G1 X150.877 Y87.137 E36.22093
G1 X151.113 Y87.823 E36.28916
G1 X151.249 Y88.736 E36.37598
G1 X151.249 Y111.109 E38.48022
G1 X151.159 Y111.949 E38.55968
G1 X150.952 Y112.661 E38.62942
G1 X150.697 Y113.285 E38.69282
G1 X150.305 Y113.903 E38.76165
G1 X149.885 Y114.432 E38.82518
G1 X149.188 Y115.047 E38.9126
G1 X148.557 Y115.428 E38.98193
G1 X148.173 Y115.607 E39.02178
G1 X147.419 Y115.865 E39.09673
G1 X146.513 Y116 E39.18288
G1 X49.891 Y116 E48.27045
G1 X49.051 Y115.91 E48.34991
G1 X48.339 Y115.703 E48.41964
G1 X47.715 Y115.448 E48.48304
G1 X47.097 Y115.056 E48.55188
G1 X46.568 Y114.636 E48.6154
G1 X45.958 Y113.945 E48.7021
G1 X45.609 Y113.368 E48.76552
G1 X45.372 Y112.863 E48.81799
G1 X45.136 Y112.177 E48.88622
G1 X45 Y111.264 E48.97304
G1 X45 Y88.891 E51.07728
G1 X45.09 Y88.051 E51.15673
G1 X45.297 Y87.339 E51.22647
G1 X45.552 Y86.715 E51.28987
G1 X45.944 Y86.097 E51.3587
G1 X46.364 Y85.568 E51.42223
G1 X47.055 Y84.958 E51.50892
G1 X47.632 Y84.609 E51.57235
G0 F3600 X49.575 Y88.095
G1 F1800 X49.884 Y88 E51.60275
G1 X146.249 Y88 E60.66615
G1 X146.528 Y88.04 E60.69266
G1 X146.785 Y88.156 E60.71918
G1 X147 Y88.339 E60.74573
G1 X147.154 Y88.575 E60.77224
G1 X147.249 Y88.884 E60.80264
G1 X147.249 Y111 E62.88271
G1 X147.209 Y111.279 E62.90922
G1 X147.093 Y111.536 E62.93574
G1 X146.91 Y111.751 E62.9623
G1 X146.674 Y111.905 E62.9888
G1 X146.365 Y112 E63.0192
G1 X50 Y112 E72.0826
G1 X49.721 Y111.96 E72.10911
G1 X49.464 Y111.844 E72.13563
G1 X49.249 Y111.661 E72.16218
G1 X49.095 Y111.425 E72.18869
G1 X49 Y111.116 E72.21909
G1 X49 Y89 E74.29916
G1 X49.04 Y88.721 E74.32567
G1 X49.156 Y88.464 E74.35219
G1 X49.339 Y88.249 E74.37875
G1 X49.575 Y88.095 E74.40525
G0 F3600 X48.482 Y86.42
G1 F1800 X48.987 Y86.183 E74.45772
G1 X49.296 Y86.088 E74.48812
G1 X49.884 Y86 E74.54404
G1 X146.249 Y86 E83.60744
G1 X146.812 Y86.06 E83.66069
G1 X147.351 Y86.217 E83.71349
G1 X147.608 Y86.333 E83.74001
G1 X148.081 Y86.633 E83.79269
G1 X148.296 Y86.816 E83.81925
G1 X148.675 Y87.246 E83.87316
G1 X148.829 Y87.482 E83.89966
G1 X149.066 Y87.987 E83.95213
G1 X149.161 Y88.296 E83.98253
G1 X149.249 Y88.884 E84.03845
G1 X149.249 Y111 E86.11852
G1 X149.189 Y111.563 E86.17177
G1 X149.032 Y112.102 E86.22458
G1 X148.916 Y112.359 E86.2511
G1 X148.616 Y112.832 E86.30378
G1 X148.433 Y113.047 E86.33033
G1 X148.003 Y113.426 E86.38424
G1 X147.523 Y113.716 E86.43699
G1 X146.953 Y113.912 E86.49368
G1 X146.365 Y114 E86.5496
G1 X50 Y114 E95.61299
G1 X49.437 Y113.94 E95.66624
G1 X48.898 Y113.783 E95.71904
G1 X48.641 Y113.667 E95.74556
G1 X48.168 Y113.367 E95.79824
G1 X47.953 Y113.184 E95.8248
G1 X47.574 Y112.754 E95.87871
G1 X47.42 Y112.518 E95.90521
G1 X47.183 Y112.013 E95.95768
G1 X47.088 Y111.704 E95.98808
G1 X47 Y111.116 E96.044
G1 X47 Y89 E98.12408
G1 X47.06 Y88.437 E98.17733
G1 X47.217 Y87.898 E98.23013
G1 X47.333 Y87.641 E98.25665
G1 X47.633 Y87.168 E98.30933
G1 X47.816 Y86.953 E98.33588
G1 X48.246 Y86.574 E98.38979
G1 X48.482 Y86.42 E98.4163
G1 F1500 E91.9163
;MESH:example.stl
G0 F3600 X52.024 Y91.024
G0 X145.248 Y110
;TYPE:WALL-OUTER
G1 F1500 E98.4163
G1 X144.7493 Y110.0000 Z0.2100 E98.45617 F1800
G1 X144.2507 Y110.0000 Z0.2300 E98.49759
G1 X143.7520 Y110.0000 Z0.2499 E98.54058
G1 X143.2533 Y110.0000 Z0.2699 E98.58513
G1 X142.7547 Y110.0000 Z0.2898 E98.63123
G1 X142.2560 Y110.0000 Z0.3098 E98.67890
G1 X141.7573 Y110.0000 Z0.3297 E98.72812
G1 X141.2587 Y110.0000 Z0.3497 E98.77890
G1 X140.7600 Y110.0000 Z0.3696 E98.83124
G1 X140.2613 Y110.0000 Z0.3895 E98.88514
G1 X139.7627 Y110.0000 Z0.4095 E98.94060
G1 X139.2640 Y110.0000 Z0.4294 E98.99762
G1 X138.7653 Y110.0000 Z0.4494 E99.05620
G1 X138.2667 Y110.0000 Z0.4693 E99.11634
G1 X137.7680 Y110.0000 Z0.4893 E99.17803
G1 X137.2693 Y110.0000 Z0.5092 E99.24129
G1 X136.7707 Y110.0000 Z0.5292 E99.30610
G1 X136.2720 Y110.0000 Z0.5491 E99.37248
G1 X135.7733 Y110.0000 Z0.5691 E99.44041
G1 X135.2747 Y110.0000 Z0.5890 E99.50991
G1 X134.7760 Y110.0000 Z0.6090 E99.58096
G1 X134.2773 Y110.0000 Z0.6289 E99.65357
G1 X133.7787 Y110.0000 Z0.6489 E99.72774
G1 X133.2800 Y110.0000 Z0.6688 E99.80347
G1 X132.7813 Y110.0000 Z0.6887 E99.88076
G1 X132.2827 Y110.0000 Z0.7087 E99.95960
G1 X131.7840 Y110.0000 Z0.7286 E100.04001
G1 X131.2853 Y110.0000 Z0.7486 E100.12198
G1 X130.7867 Y110.0000 Z0.7685 E100.20550
G1 X130.2880 Y110.0000 Z0.7885 E100.29059
G1 X129.7893 Y110.0000 Z0.8084 E100.37723
G1 X129.2907 Y110.0000 Z0.8284 E100.46543
G1 X128.7920 Y110.0000 Z0.8483 E100.55520
G1 X128.2933 Y110.0000 Z0.8683 E100.64652
G1 X127.7947 Y110.0000 Z0.8882 E100.73940
G1 X51.0000 Y110.0000 Z0.3000 E107.96214
G1 Z0.3000 ;ZAA_RESET
G1 X51 Y90 E109.16164
G1 X127.2960 Y90.0000 Z0.3000 E116.33749
G1 X127.7947 Y90.0000 Z0.8882 E116.43037
G1 X128.2933 Y90.0000 Z0.8683 E116.52170
G1 X128.7920 Y90.0000 Z0.8483 E116.61146
G1 X129.2907 Y90.0000 Z0.8284 E116.69966
G1 X129.7893 Y90.0000 Z0.8084 E116.78631
G1 X130.2880 Y90.0000 Z0.7885 E116.87139
G1 X130.7867 Y90.0000 Z0.7685 E116.95492
G1 X131.2853 Y90.0000 Z0.7486 E117.03688
G1 X131.7840 Y90.0000 Z0.7286 E117.11729
G1 X132.2827 Y90.0000 Z0.7087 E117.19614
G1 X132.7813 Y90.0000 Z0.6887 E117.27343
G1 X133.2800 Y90.0000 Z0.6688 E117.34915
G1 X133.7787 Y90.0000 Z0.6489 E117.42333
G1 X134.2773 Y90.0000 Z0.6289 E117.49594
G1 X134.7760 Y90.0000 Z0.6090 E117.56699
G1 X135.2747 Y90.0000 Z0.5890 E117.63648
G1 X135.7733 Y90.0000 Z0.5691 E117.70441
G1 X136.2720 Y90.0000 Z0.5491 E117.77079
G1 X136.7707 Y90.0000 Z0.5292 E117.83560
G1 X137.2693 Y90.0000 Z0.5092 E117.89886
G1 X137.7680 Y90.0000 Z0.4893 E117.96056
G1 X138.2667 Y90.0000 Z0.4693 E118.02069
G1 X138.7653 Y90.0000 Z0.4494 E118.07927
G1 X139.2640 Y90.0000 Z0.4294 E118.13629
G1 X139.7627 Y90.0000 Z0.4095 E118.19175
G1 X140.2613 Y90.0000 Z0.3895 E118.24565
G1 X140.7600 Y90.0000 Z0.3696 E118.29799
G1 X141.2587 Y90.0000 Z0.3497 E118.34878
G1 X141.7573 Y90.0000 Z0.3297 E118.39800
G1 X142.2560 Y90.0000 Z0.3098 E118.44566
G1 X142.7547 Y90.0000 Z0.2898 E118.49177
G1 X143.2533 Y90.0000 Z0.2699 E118.53631
G1 X143.7520 Y90.0000 Z0.2499 E118.57930
G1 X144.2507 Y90.0000 Z0.2300 E118.62073
G1 X144.7493 Y90.0000 Z0.2100 E118.66059
G1 X145.2480 Y90.0000 Z0.1901 E118.69890
G1 X145.2480 Y110.0000 Z0.1901 E119.56237
G0 F3600 X144.248 Y110
G0 X144.169 Y108.92
G0 X142.139 Y106.92
G0 X143.348 Y108.1
;TYPE:SKIN
G1 X142.8483 Y108.1000 Z0.2861 E119.95289 F1800
G1 X142.3486 Y108.1000 Z0.3061 E120.00036
G1 X141.8489 Y108.1000 Z0.3260 E120.04940
G1 X141.3491 Y108.1000 Z0.3460 E120.10001
G1 X140.8494 Y108.1000 Z0.3660 E120.15218
G1 X140.3497 Y108.1000 Z0.3860 E120.20591
G1 X139.8500 Y108.1000 Z0.4060 E120.26122
G1 X139.3503 Y108.1000 Z0.4260 E120.31809
G1 X138.8506 Y108.1000 Z0.4460 E120.37652
G1 X138.3509 Y108.1000 Z0.4660 E120.43652
G1 X137.8512 Y108.1000 Z0.4860 E120.49809
G1 X137.3514 Y108.1000 Z0.5059 E120.56122
G1 X136.8517 Y108.1000 Z0.5259 E120.62591
G1 X136.3520 Y108.1000 Z0.5459 E120.69218
G1 X135.8523 Y108.1000 Z0.5659 E120.76000
G1 X135.3526 Y108.1000 Z0.5859 E120.82940
G1 X134.8529 Y108.1000 Z0.6059 E120.90036
G1 X134.3532 Y108.1000 Z0.6259 E120.97289
G1 X133.8535 Y108.1000 Z0.6459 E121.04698
G1 X133.3537 Y108.1000 Z0.6659 E121.12263
G1 X132.8540 Y108.1000 Z0.6858 E121.19986
G1 X132.3543 Y108.1000 Z0.7058 E121.27865
G1 X131.8546 Y108.1000 Z0.7258 E121.35900
G1 X131.3549 Y108.1000 Z0.7458 E121.44092
G1 X130.8552 Y108.1000 Z0.7658 E121.52441
G1 X130.3555 Y108.1000 Z0.7858 E121.60946
G1 X129.8558 Y108.1000 Z0.8058 E121.69608
G1 X129.3560 Y108.1000 Z0.8258 E121.78426
G1 X128.8563 Y108.1000 Z0.8457 E121.87401
G1 X128.3566 Y108.1000 Z0.8657 E121.96532
G1 X127.8569 Y108.1000 Z0.8857 E122.05820
G1 X52.9000 Y108.1000 Z0.3000 E129.10811
G1 Z0.3000 ;ZAA_RESET
G1 X52.9 Y91.9 E129.93752
G1 X127.3572 Y91.9000 Z0.3000 E136.94043
G1 X127.8569 Y91.9000 Z0.8857 E137.03331
G1 X128.3566 Y91.9000 Z0.8657 E137.12462
G1 X128.8563 Y91.9000 Z0.8457 E137.21437
G1 X129.3560 Y91.9000 Z0.8258 E137.30256
G1 X129.8558 Y91.9000 Z0.8058 E137.38917
G1 X130.3555 Y91.9000 Z0.7858 E137.47423
G1 X130.8552 Y91.9000 Z0.7658 E137.55771
G1 X131.3549 Y91.9000 Z0.7458 E137.63963
G1 X131.8546 Y91.9000 Z0.7258 E137.71999
G1 X132.3543 Y91.9000 Z0.7058 E137.79878
G1 X132.8540 Y91.9000 Z0.6858 E137.87600
G1 X133.3537 Y91.9000 Z0.6659 E137.95166
G1 X133.8535 Y91.9000 Z0.6459 E138.02575
G1 X134.3532 Y91.9000 Z0.6259 E138.09827
G1 X134.8529 Y91.9000 Z0.6059 E138.16923
G1 X135.3526 Y91.9000 Z0.5859 E138.23863
G1 X135.8523 Y91.9000 Z0.5659 E138.30646
G1 X136.3520 Y91.9000 Z0.5459 E138.37272
G1 X136.8517 Y91.9000 Z0.5259 E138.43742
G1 X137.3514 Y91.9000 Z0.5059 E138.50055
G1 X137.8512 Y91.9000 Z0.4860 E138.56211
G1 X138.3509 Y91.9000 Z0.4660 E138.62211
G1 X138.8506 Y91.9000 Z0.4460 E138.68055
G1 X139.3503 Y91.9000 Z0.4260 E138.73742
G1 X139.8500 Y91.9000 Z0.4060 E138.79272
G1 X140.3497 Y91.9000 Z0.3860 E138.84645
G1 X140.8494 Y91.9000 Z0.3660 E138.89863
G1 X141.3491 Y91.9000 Z0.3460 E138.94923
G1 X141.8489 Y91.9000 Z0.3260 E138.99827
G1 X142.3486 Y91.9000 Z0.3061 E139.04574
G1 X142.8483 Y91.9000 Z0.2861 E139.09165
G1 X143.3480 Y91.9000 Z0.2661 E139.13600
G1 X143.3480 Y108.1000 Z0.2661 E139.88192
G0 F3600 X142.169 Y106.92
G0 X142.139 Y94.264
G0 X142.348 Y94.264
G1 X142.0068 Y93.9230 Z0.3197 E140.01493 F1800
G1 X141.6655 Y93.5820 Z0.3334 E140.06283
G1 X141.3243 Y93.2410 Z0.3470 E140.11176
G1 X140.9830 Y92.9000 Z0.3607 E140.16172
G0 F3600 X140.983 Y93.11
G0 X138.155 Y93.11
G0 X138.155 Y92.9
G1 X138.5044 Y93.2494 Z0.4598 E140.20842 F1800
G1 X138.8538 Y93.5988 Z0.4458 E140.26619
G1 X139.2032 Y93.9483 Z0.4319 E140.32288
G1 X139.5527 Y94.2977 Z0.4179 E140.37849
G1 X139.9021 Y94.6471 Z0.4039 E140.43301
G1 X140.2515 Y94.9965 Z0.3899 E140.48645
G1 X140.6009 Y95.3459 Z0.3760 E140.53881
G1 X140.9503 Y95.6953 Z0.3620 E140.59009
G1 X141.2998 Y96.0448 Z0.3480 E140.64029
G1 X141.6492 Y96.3942 Z0.3340 E140.68940
G1 X141.9986 Y96.7436 Z0.3201 E140.73743
G1 X142.3480 Y97.0930 Z0.3061 E140.78437
G0 F3600 X142.139 Y97.093
G0 X142.139 Y99.921
G0 X142.348 Y99.921
G1 X141.9969 Y99.5700 Z0.3201 E140.75553 F1800
G1 X141.6458 Y99.2189 Z0.3342 E140.80489
G1 X141.2947 Y98.8679 Z0.3482 E140.85534
G1 X140.9436 Y98.5168 Z0.3623 E140.90688
G1 X140.5925 Y98.1658 Z0.3763 E140.95952
G1 X140.2414 Y97.8147 Z0.3903 E141.01324
G1 X139.8903 Y97.4637 Z0.4044 E141.06807
G1 X139.5392 Y97.1126 Z0.4184 E141.12398
G1 X139.1881 Y96.7615 Z0.4325 E141.18099
G1 X138.8370 Y96.4105 Z0.4465 E141.23909
G1 X138.4859 Y96.0595 Z0.4606 E141.29828
G1 X138.1348 Y95.7084 Z0.4746 E141.35857
G1 X137.7837 Y95.3574 Z0.4887 E141.41995
G1 X137.4326 Y95.0063 Z0.5027 E141.48242
G1 X137.0815 Y94.6553 Z0.5167 E141.54599
G1 X136.7304 Y94.3042 Z0.5308 E141.61064
G1 X136.3793 Y93.9532 Z0.5448 E141.67640
G1 X136.0282 Y93.6021 Z0.5589 E141.74324
G1 X135.6771 Y93.2511 Z0.5729 E141.81118
G1 X135.3260 Y92.9000 Z0.5870 E141.88021
G0 F3600 X135.326 Y93.11
G0 X132.498 Y93.11
G0 X132.498 Y92.9
G1 X132.8498 Y93.2518 Z0.6860 E141.71810 F1800
G1 X133.2016 Y93.6036 Z0.6719 E141.79390
G1 X133.5534 Y93.9554 Z0.6579 E141.86860
G1 X133.9051 Y94.3071 Z0.6438 E141.94220
G1 X134.2569 Y94.6589 Z0.6297 E142.01471
G1 X134.6087 Y95.0107 Z0.6157 E142.08611
G1 X134.9605 Y95.3625 Z0.6016 E142.15642
G1 X135.3123 Y95.7143 Z0.5875 E142.22564
G1 X135.6641 Y96.0661 Z0.5734 E142.29375
G1 X136.0159 Y96.4179 Z0.5594 E142.36077
G1 X136.3676 Y96.7696 Z0.5453 E142.42669
G1 X136.7194 Y97.1214 Z0.5312 E142.49151
G1 X137.0712 Y97.4732 Z0.5172 E142.55524
G1 X137.4230 Y97.8250 Z0.5031 E142.61787
G1 X137.7748 Y98.1768 Z0.4890 E142.67940
G1 X138.1266 Y98.5286 Z0.4749 E142.73983
G1 X138.4784 Y98.8804 Z0.4609 E142.79917
G1 X138.8301 Y99.2321 Z0.4468 E142.85741
G1 X139.1819 Y99.5839 Z0.4327 E142.91455
G1 X139.5337 Y99.9357 Z0.4187 E142.97059
G1 X139.8855 Y100.2875 Z0.4046 E143.02554
G1 X140.2373 Y100.6393 Z0.3905 E143.07939
G1 X140.5891 Y100.9911 Z0.3764 E143.13214
G1 X140.9409 Y101.3429 Z0.3624 E143.18379
G1 X141.2926 Y101.6946 Z0.3483 E143.23435
G1 X141.6444 Y102.0464 Z0.3342 E143.28381
G1 X141.9962 Y102.3982 Z0.3202 E143.33217
G1 X142.3480 Y102.7500 Z0.3061 E143.37944
G0 F3600 X142.139 Y102.75
G0 X142.139 Y105.578
G0 X142.348 Y105.578
G1 X141.9958 Y105.2258 Z0.3202 E142.99978 F1800
G1 X141.6436 Y104.8737 Z0.3343 E143.04930
G1 X141.2914 Y104.5215 Z0.3483 E143.09991
G1 X140.9392 Y104.1693 Z0.3624 E143.15163
G1 X140.5870 Y103.8172 Z0.3765 E143.20445
G1 X140.2348 Y103.4650 Z0.3906 E143.25837
G1 X139.8826 Y103.1128 Z0.4047 E143.31339
G1 X139.5304 Y102.7607 Z0.4188 E143.36950
G1 X139.1783 Y102.4085 Z0.4329 E143.42672
G1 X138.8261 Y102.0563 Z0.4470 E143.48504
G1 X138.4739 Y101.7042 Z0.4610 E143.54446
G1 X138.1217 Y101.3520 Z0.4751 E143.60497
G1 X137.7695 Y100.9998 Z0.4892 E143.66659
G1 X137.4173 Y100.6477 Z0.5033 E143.72931
G1 X137.0651 Y100.2955 Z0.5174 E143.79312
G1 X136.7129 Y99.9433 Z0.5315 E143.85804
G1 X136.3607 Y99.5912 Z0.5456 E143.92406
G1 X136.0085 Y99.2390 Z0.5597 E143.99117
G1 X135.6563 Y98.8868 Z0.5737 E144.05939
G1 X135.3041 Y98.5347 Z0.5878 E144.12871
G1 X134.9519 Y98.1825 Z0.6019 E144.19912
G1 X134.5997 Y97.8303 Z0.6160 E144.27064
G1 X134.2475 Y97.4782 Z0.6301 E144.34325
G1 X133.8953 Y97.1260 Z0.6442 E144.41697
G1 X133.5431 Y96.7738 Z0.6583 E144.49178
G1 X133.1909 Y96.4217 Z0.6724 E144.56770
G1 X132.8388 Y96.0695 Z0.6865 E144.64472
G1 X132.4866 Y95.7173 Z0.7005 E144.72283
G1 X132.1344 Y95.3652 Z0.7146 E144.80205
G1 X131.7822 Y95.0130 Z0.7287 E144.88236
G1 X131.4300 Y94.6608 Z0.7428 E144.96377
G1 X131.0778 Y94.3087 Z0.7569 E145.04629
G1 X130.7256 Y93.9565 Z0.7710 E145.12990
G1 X130.3734 Y93.6043 Z0.7851 E145.21462
G1 X130.0212 Y93.2522 Z0.7992 E145.30043
G1 X129.6690 Y92.9000 Z0.8132 E145.38735
G0 F3600 X129.669 Y93.11
G0 X126.841 Y93.11
G0 X126.841 Y92.9
G1 X127.1873 Y93.2463 Z0.3000 E144.68381 F1800
G1 X127.5337 Y93.5927 Z0.8987 E144.77584
G1 X127.8800 Y93.9390 Z0.8848 E144.86680
G1 X128.2264 Y94.2854 Z0.8709 E144.95671
G1 X128.5727 Y94.6317 Z0.8571 E145.04555
G1 X128.9190 Y94.9780 Z0.8432 E145.13332
G1 X129.2654 Y95.3244 Z0.8294 E145.22004
