;FLAVOR:Marlin
;TIME:196
;Filament used: 0.719352m
;Layer height: 0.6
;MINX:43
;MINY:82
;MINZ:0.3
;MAXX:153.249
;MAXY:118
;MAXZ:3.9
;TARGET_MACHINE.NAME:Unknown
;Generated with Cura_SteamEngine 5.12.0
M104 S200
M105
M109 S200
G28 ;Home
G1 Z15.0 F6000 ;Move the platform down 15mm
;Prime the extruder
G92 E0
G1 F200 E3
G92 E0
M82 ;absolute extrusion mode
G92 E0
G92 E0
G1 F1500 E-6.5
;LAYER_COUNT:7
;LAYER:0
M107
G0 F3600 X46.694 Y82.839 Z0.3
;TYPE:SKIRT
G1 F1500 E0
G1 F1800 X45.864 Y83.341 E0.09123
G1 X44.908 Y84.186 E0.21123
G1 X44.312 Y84.936 E0.30134
G1 X43.768 Y85.793 E0.39681
G1 X43.407 Y86.677 E0.48661
G1 X43.119 Y87.668 E0.58368
G1 X43 Y88.781 E0.68895
G1 X43 Y111.411 E2.81737
G1 X43.185 Y112.654 E2.93556
G1 X43.518 Y113.621 E3.03175
G1 X43.839 Y114.306 E3.1029
G1 X44.341 Y115.136 E3.19414
G1 X45.186 Y116.092 E3.31414
G1 X45.936 Y116.688 E3.40424
G1 X46.793 Y117.232 E3.49971
G1 X47.677 Y117.593 E3.58952
G1 X48.668 Y117.881 E3.68658
G1 X49.781 Y118 E3.79186
G1 X146.66 Y118 E12.9036
G1 X147.892 Y117.817 E13.02074
G1 X148.941 Y117.458 E13.12502
G1 X149.591 Y117.14 E13.19308
G1 X150.376 Y116.666 E13.27933
G1 X151.341 Y115.815 E13.40034
G1 X151.937 Y115.064 E13.49051
G1 X152.481 Y114.207 E13.58598
G1 X152.842 Y113.323 E13.67579
G1 X153.13 Y112.332 E13.77285
G1 X153.249 Y111.219 E13.87813
G1 X153.249 Y88.589 E16.00655
G1 X153.064 Y87.346 E16.12474
G1 X152.731 Y86.379 E16.22093
G1 X152.41 Y85.694 E16.29208
G1 X151.908 Y84.864 E16.38331
G1 X151.063 Y83.908 E16.50332
G1 X150.313 Y83.312 E16.59342
G1 X149.456 Y82.768 E16.68889
G1 X148.572 Y82.407 E16.77869
G1 X147.581 Y82.119 E16.87576
G1 X146.468 Y82 E16.98103
G1 X49.589 Y82 E26.09277
G1 X48.346 Y82.185 E26.21097
G1 X47.379 Y82.518 E26.30716
G1 X46.694 Y82.839 E26.37831
G0 F3600 X47.632 Y84.609
G1 F1800 X48.137 Y84.372 E26.43078
G1 X48.823 Y84.136 E26.49901
G1 X49.736 Y84 E26.58583
G1 X146.358 Y84 E35.67339
G1 X147.198 Y84.09 E35.75285
G1 X147.91 Y84.297 E35.82259
G1 X148.534 Y84.552 E35.88599
G1 X149.152 Y84.944 E35.95482
G1 X149.681 Y85.364 E36.01835
G1 X150.291 Y86.055 E36.10504
G1 X150.64 Y86.632 E36.16846
G1 X150.877 Y87.137 E36.22093
G1 X151.113 Y87.823 E36.28916
G1 X151.249 Y88.736 E36.37598
G1 X151.249 Y111.109 E38.48022
G1 X151.159 Y111.949 E38.55968
G1 X150.952 Y112.661 E38.62942
G1 X150.697 Y113.285 E38.69282
G1 X150.305 Y113.903 E38.76165
G1 X149.885 Y114.432 E38.82518
G1 X149.188 Y115.047 E38.9126
G1 X148.557 Y115.428 E38.98193
G1 X148.173 Y115.607 E39.02178
G1 X147.419 Y115.865 E39.09673
G1 X146.513 Y116 E39.18288
G1 X49.891 Y116 E48.27045
G1 X49.051 Y115.91 E48.34991
G1 X48.339 Y115.703 E48.41964
G1 X47.715 Y115.448 E48.48304
G1 X47.097 Y115.056 E48.55188
G1 X46.568 Y114.636 E48.6154
G1 X45.958 Y113.945 E48.7021
G1 X45.609 Y113.368 E48.76552
G1 X45.372 Y112.863 E48.81799
G1 X45.136 Y112.177 E48.88622
G1 X45 Y111.264 E48.97304
G1 X45 Y88.891 E51.07728
G1 X45.09 Y88.051 E51.15673
G1 X45.297 Y87.339 E51.22647
G1 X45.552 Y86.715 E51.28987
G1 X45.944 Y86.097 E51.3587
G1 X46.364 Y85.568 E51.42223
G1 X47.055 Y84.958 E51.50892
G1 X47.632 Y84.609 E51.57235
G0 F3600 X49.575 Y88.095
G1 F1800 X49.884 Y88 E51.60275
G1 X146.249 Y88 E60.66615
G1 X146.528 Y88.04 E60.69266
G1 X146.785 Y88.156 E60.71918
G1 X147 Y88.339 E60.74573
G1 X147.154 Y88.575 E60.77224
G1 X147.249 Y88.884 E60.80264
G1 X147.249 Y111 E62.88271
G1 X147.209 Y111.279 E62.90922
G1 X147.093 Y111.536 E62.93574
G1 X146.91 Y111.751 E62.9623
G1 X146.674 Y111.905 E62.9888
G1 X146.365 Y112 E63.0192
G1 X50 Y112 E72.0826
G1 X49.721 Y111.96 E72.10911
G1 X49.464 Y111.844 E72.13563
G1 X49.249 Y111.661 E72.16218
G1 X49.095 Y111.425 E72.18869
G1 X49 Y111.116 E72.21909
G1 X49 Y89 E74.29916
G1 X49.04 Y88.721 E74.32567
G1 X49.156 Y88.464 E74.35219
G1 X49.339 Y88.249 E74.37875
G1 X49.575 Y88.095 E74.40525
G0 F3600 X48.482 Y86.42
G1 F1800 X48.987 Y86.183 E74.45772
G1 X49.296 Y86.088 E74.48812
G1 X49.884 Y86 E74.54404
G1 X146.249 Y86 E83.60744
G1 X146.812 Y86.06 E83.66069
G1 X147.351 Y86.217 E83.71349
G1 X147.608 Y86.333 E83.74001
G1 X148.081 Y86.633 E83.79269
G1 X148.296 Y86.816 E83.81925
G1 X148.675 Y87.246 E83.87316
G1 X148.829 Y87.482 E83.89966
G1 X149.066 Y87.987 E83.95213
G1 X149.161 Y88.296 E83.98253
G1 X149.249 Y88.884 E84.03845
G1 X149.249 Y111 E86.11852
G1 X149.189 Y111.563 E86.17177
G1 X149.032 Y112.102 E86.22458
G1 X148.916 Y112.359 E86.2511
G1 X148.616 Y112.832 E86.30378
G1 X148.433 Y113.047 E86.33033
G1 X148.003 Y113.426 E86.38424
G1 X147.523 Y113.716 E86.43699
G1 X146.953 Y113.912 E86.49368
G1 X146.365 Y114 E86.5496
G1 X50 Y114 E95.61299
G1 X49.437 Y113.94 E95.66624
G1 X48.898 Y113.783 E95.71904
G1 X48.641 Y113.667 E95.74556
G1 X48.168 Y113.367 E95.79824
G1 X47.953 Y113.184 E95.8248
G1 X47.574 Y112.754 E95.87871
G1 X47.42 Y112.518 E95.90521
G1 X47.183 Y112.013 E95.95768
G1 X47.088 Y111.704 E95.98808
G1 X47 Y111.116 E96.044
G1 X47 Y89 E98.12408
G1 X47.06 Y88.437 E98.17733
G1 X47.217 Y87.898 E98.23013
G1 X47.333 Y87.641 E98.25665
G1 X47.633 Y87.168 E98.30933
G1 X47.816 Y86.953 E98.33588
G1 X48.246 Y86.574 E98.38979
G1 X48.482 Y86.42 E98.4163
G1 F1500 E91.9163
;MESH:example.stl
G0 F3600 X52.024 Y91.024
G0 X145.248 Y110
;TYPE:WALL-OUTER
G1 F1500 E98.4163
G1 F1800 X51 Y110 E107.28058
G1 X51 Y90 E109.16164
G1 X145.248 Y90 E118.02593
G1 X145.248 Y110 E119.90698
G0 F3600 X144.248 Y110
G0 X144.169 Y108.92
G0 X142.139 Y106.92
G0 X143.348 Y108.1
;TYPE:SKIN
G1 F1800 X52.9 Y108.1 E128.41387
G1 X52.9 Y91.9 E129.93752
G1 X143.348 Y91.9 E138.44441
G1 X143.348 Y108.1 E139.96806
G0 F3600 X142.169 Y106.92
G0 X142.139 Y94.264
G0 X142.348 Y94.264
G1 F1800 X140.983 Y92.9 E140.14956
G0 F3600 X140.983 Y93.11
G0 X138.155 Y93.11
G0 X138.155 Y92.9
G1 F1800 X142.348 Y97.093 E140.70727
G0 F3600 X142.139 Y97.093
G0 X142.139 Y99.921
G0 X142.348 Y99.921
G1 F1800 X135.326 Y92.9 E141.64121
G0 F3600 X135.326 Y93.11
G0 X132.498 Y93.11
G0 X132.498 Y92.9
G1 F1800 X142.348 Y102.75 E142.95136
G0 F3600 X142.139 Y102.75
G0 X142.139 Y105.578
G0 X142.348 Y105.578
G1 F1800 X129.669 Y92.9 E144.63774
G0 F3600 X129.669 Y93.11
G0 X126.841 Y93.11
G0 X126.841 Y92.9
G1 F1800 X141.041 Y107.1 E146.52649
G0 F3600 X141.041 Y106.89
G0 X138.213 Y106.89
G0 X138.213 Y107.1
G1 F1800 X124.012 Y92.9 E148.41531
G0 F3600 X124.012 Y93.11
G0 X121.184 Y93.11
G0 X121.184 Y92.9
G1 F1800 X135.384 Y107.1 E150.30406
G0 F3600 X135.384 Y106.89
G0 X132.556 Y106.89
G0 X132.556 Y107.1
G1 F1800 X118.356 Y92.9 E152.19281
G0 F3600 X118.356 Y93.11
G0 X115.527 Y93.11
G0 X115.527 Y92.9
G1 F1800 X129.727 Y107.1 E154.08157
G0 F3600 X129.727 Y106.89
G0 X126.899 Y106.89
G0 X126.899 Y107.1
G1 F1800 X112.699 Y92.9 E155.97032
G0 F3600 X112.699 Y93.11
G0 X109.87 Y93.11
G0 X109.87 Y92.9
G1 F1800 X124.07 Y107.1 E157.85907
G0 F3600 X124.07 Y106.89
G0 X121.242 Y106.89
G0 X121.242 Y107.1
G1 F1800 X107.042 Y92.9 E159.74782
G0 F3600 X107.042 Y93.11
G0 X104.213 Y93.11
G0 X104.213 Y92.9
G1 F1800 X118.414 Y107.1 E161.63664
G0 F3600 X118.414 Y106.89
G0 X115.585 Y106.89
G0 X115.585 Y107.1
G1 F1800 X101.385 Y92.9 E163.52539
G0 F3600 X101.385 Y93.11
G0 X98.557 Y93.11
G0 X98.557 Y92.9
G1 F1800 X112.757 Y107.1 E165.41414
G0 F3600 X112.757 Y106.89
G0 X109.928 Y106.89
G0 X109.928 Y107.1
G1 F1800 X95.728 Y92.9 E167.3029
G0 F3600 X95.728 Y93.11
G0 X92.9 Y93.11
G0 X92.9 Y92.9
G1 F1800 X107.1 Y107.1 E169.19165
G0 F3600 X107.1 Y106.89
G0 X104.271 Y106.89
G0 X104.271 Y107.1
G1 F1800 X90.071 Y92.9 E171.0804
G0 F3600 X90.071 Y93.11
G0 X87.243 Y93.11
G0 X87.243 Y92.9
G1 F1800 X101.443 Y107.1 E172.96915
G0 F3600 X101.443 Y106.89
G0 X98.615 Y106.89
G0 X98.615 Y107.1
G1 F1800 X84.414 Y92.9 E174.85797
G0 F3600 X84.414 Y93.11
G0 X81.586 Y93.11
G0 X81.586 Y92.9
G1 F1800 X95.786 Y107.1 E176.74672
G0 F3600 X95.786 Y106.89
G0 X92.958 Y106.89
G0 X92.958 Y107.1
G1 F1800 X78.758 Y92.9 E178.63548
G0 F3600 X78.758 Y93.11
G0 X75.929 Y93.11
G0 X75.929 Y92.9
G1 F1800 X90.129 Y107.1 E180.52423
G0 F3600 X90.129 Y106.89
G0 X87.301 Y106.89
G0 X87.301 Y107.1
G1 F1800 X73.101 Y92.9 E182.41298
G0 F3600 X73.101 Y93.11
G0 X70.272 Y93.11
G0 X70.272 Y92.9
G1 F1800 X84.472 Y107.1 E184.30173
G0 F3600 X84.472 Y106.89
G0 X81.644 Y106.89
G0 X81.644 Y107.1
G1 F1800 X67.444 Y92.9 E186.19049
G0 F3600 X67.444 Y93.11
G0 X64.615 Y93.11
G0 X64.615 Y92.9
G1 F1800 X78.816 Y107.1 E188.0793
G0 F3600 X78.816 Y106.89
G0 X75.987 Y106.89
G0 X75.987 Y107.1
G1 F1800 X61.787 Y92.9 E189.96806
G0 F3600 X61.787 Y93.11
G0 X58.959 Y93.11
G0 X58.959 Y92.9
G1 F1800 X73.159 Y107.1 E191.85681
G0 F3600 X73.159 Y106.89
G0 X70.33 Y106.89
G0 X70.33 Y107.1
G1 F1800 X56.13 Y92.9 E193.74556
G0 F3600 X56.13 Y93.11
G0 X54.11 Y93.498
G0 X53.9 Y93.498
G1 F1800 X67.502 Y107.1 E195.55477
G0 F3600 X67.502 Y106.89
G0 X64.673 Y106.89
G0 X64.673 Y107.1
G1 F1800 X53.9 Y96.326 E196.98776
G0 F3600 X54.11 Y96.326
G0 X54.11 Y99.155
G0 X53.9 Y99.155
G1 F1800 X61.845 Y107.1 E198.04453
G0 F3600 X61.845 Y106.89
G0 X59.017 Y106.89
G0 X59.017 Y107.1
G1 F1800 X53.9 Y101.983 E198.72515
G0 F3600 X54.11 Y101.983
G0 X54.11 Y104.812
G0 X53.9 Y104.812
G1 F1800 X56.188 Y107.1 E199.02948
G0 F3600 X56.188 Y104.99
;MESH:NONMESH
G0 F600 Z0.9
G0 F3600 X133.996 Y106.89
G0 X133.996 Y110
;TIME_ELAPSED:81.146109
;LAYER:1
M106 S255
;TYPE:WALL-OUTER
;MESH:example.stl
G1 F1800 X51 Y110 E214.64149
G1 X51 Y90 E218.4036
G1 X133.996 Y90 E234.01561
G1 X133.996 Y110 E237.77772
G0 F5400 X132.996 Y110
G0 X132.919 Y108.92
G0 X130.889 Y106.92
G0 X132.096 Y108.1
;TYPE:SKIN
G1 F1800 X52.9 Y108.1 E252.67493
G1 X52.9 Y91.9 E255.72224
G1 X132.096 Y91.9 E270.61945
G1 X132.096 Y108.1 E273.66676
G0 F5400 X130.919 Y106.92
G0 X130.488 Y107.1
G1 F1800 X131.096 Y106.492 E273.8285
G0 F5400 X130.889 Y106.492
G0 X130.889 Y103.663
G0 X131.096 Y103.663
G1 F1800 X127.66 Y107.1 E274.74268
G0 F5400 X127.66 Y106.89
G0 X124.831 Y106.89
G0 X124.831 Y107.1
G1 F1800 X131.096 Y100.835 E276.40931
G0 F5400 X130.889 Y100.835
G0 X130.889 Y98.006
G0 X131.096 Y98.006
G1 F1800 X122.003 Y107.1 E278.82837
G0 F5400 X122.003 Y106.89
G0 X119.174 Y106.89
G0 X119.174 Y107.1
G1 F1800 X131.096 Y95.178 E281.99988
G0 F5400 X130.889 Y95.178
G0 X130.546 Y93.11
G0 X130.546 Y92.9
G1 F1800 X116.346 Y107.1 E285.77738
G0 F5400 X116.346 Y106.89
G0 X113.518 Y106.89
G0 X113.518 Y107.1
G1 F1800 X127.718 Y92.9 E289.55489
G0 F5400 X127.718 Y93.11
G0 X124.889 Y93.11
G0 X124.889 Y92.9
G1 F1800 X110.689 Y107.1 E293.33239
G0 F5400 X110.689 Y106.89
G0 X107.861 Y106.89
G0 X107.861 Y107.1
G1 F1800 X122.061 Y92.9 E297.1099
G0 F5400 X122.061 Y93.11
G0 X119.232 Y93.11
G0 X119.232 Y92.9
G1 F1800 X105.032 Y107.1 E300.8874
G0 F5400 X105.032 Y106.89
G0 X102.204 Y106.89
G0 X102.204 Y107.1
G1 F1800 X116.404 Y92.9 E304.66491
G0 F5400 X116.404 Y93.11
G0 X113.575 Y93.11
G0 X113.575 Y92.9
G1 F1800 X99.375 Y107.1 E308.44241
G0 F5400 X99.375 Y106.89
G0 X96.547 Y106.89
G0 X96.547 Y107.1
G1 F1800 X110.747 Y92.9 E312.21991
G0 F5400 X110.747 Y93.11
G0 X107.919 Y93.11
G0 X107.919 Y92.9
G1 F1800 X93.719 Y107.1 E315.99742
G0 F5400 X93.719 Y106.89
G0 X90.89 Y106.89
G0 X90.89 Y107.1
G1 F1800 X105.09 Y92.9 E319.77492
G0 F5400 X105.09 Y93.11
G0 X102.262 Y93.11
G0 X102.262 Y92.9
G1 F1800 X88.062 Y107.1 E323.55243
G0 F5400 X88.062 Y106.89
G0 X85.233 Y106.89
G0 X85.233 Y107.1
G1 F1800 X99.433 Y92.9 E327.32993
G0 F5400 X99.433 Y93.11
G0 X96.605 Y93.11
G0 X96.605 Y92.9
G1 F1800 X82.405 Y107.1 E331.10744
G0 F5400 X82.405 Y106.89
G0 X79.576 Y106.89
G0 X79.576 Y107.1
G1 F1800 X93.777 Y92.9 E334.88507
G0 F5400 X93.777 Y93.11
G0 X90.948 Y93.11
G0 X90.948 Y92.9
G1 F1800 X76.748 Y107.1 E338.66258
G0 F5400 X76.748 Y106.89
G0 X73.92 Y106.89
G0 X73.92 Y107.1
G1 F1800 X88.12 Y92.9 E342.44008
G0 F5400 X88.12 Y93.11
G0 X85.291 Y93.11
G0 X85.291 Y92.9
G1 F1800 X71.091 Y107.1 E346.21759
G0 F5400 X71.091 Y106.89
G0 X68.263 Y106.89
G0 X68.263 Y107.1
G1 F1800 X82.463 Y92.9 E349.99509
G0 F5400 X82.463 Y93.11
G0 X79.634 Y93.11
G0 X79.634 Y92.9
G1 F1800 X65.434 Y107.1 E353.7726
G0 F5400 X65.434 Y106.89
G0 X62.606 Y106.89
G0 X62.606 Y107.1
G1 F1800 X76.806 Y92.9 E357.5501
G0 F5400 X76.806 Y93.11
G0 X73.978 Y93.11
G0 X73.978 Y92.9
G1 F1800 X59.777 Y107.1 E361.32774
G0 F5400 X59.777 Y106.89
G0 X56.949 Y106.89
G0 X56.949 Y107.1
G1 F1800 X71.149 Y92.9 E365.10524
G0 F5400 X71.149 Y93.11
G0 X68.321 Y93.11
G0 X68.321 Y92.9
G1 F1800 X54.121 Y107.1 E368.88275
G0 F5400 X54.121 Y106.89
G0 X54.11 Y104.492
G0 X53.9 Y104.492
G1 F1800 X65.492 Y92.9 E371.96647
G0 F5400 X65.492 Y93.11
G0 X62.664 Y93.11
G0 X62.664 Y92.9
G1 F1800 X53.9 Y101.664 E374.29788
G0 F5400 X54.11 Y101.664
G0 X54.11 Y98.835
G0 X53.9 Y98.835
G1 F1800 X59.835 Y92.9 E375.87672
G0 F5400 X59.835 Y93.11
G0 X57.007 Y93.11
G0 X57.007 Y92.9
G1 F1800 X53.9 Y96.007 E376.70325
G1 X53.547 Y96.36
G0 F5400 X56.01 Y96.36
;MESH:NONMESH
G0 F600 Z1.5
G0 F5400 X54.08 Y93.08
G0 X52.631 Y90.8
;TIME_ELAPSED:115.264292
;LAYER:2
;TYPE:FILL
;MESH:example.stl
G1 F3600 X51.8 Y91.631 E376.92431
G0 F7200 X54.08 Y93.08
G0 X62.515 Y93.11
G0 X62.515 Y90.8
G1 F3600 X80.916 Y109.2 E381.81924
G1 X81.269 Y109.553
G0 F7200 X81.269 Y106.89
G0 X80.916 Y93.11
G0 X80.916 Y90.8
G1 F3600 X62.515 Y109.2 E386.71417
G1 X62.162 Y109.553
G0 F7200 X62.162 Y106.89
G0 X54.08 Y106.92
G0 X52.631 Y109.2
G1 F3600 X51.8 Y108.368 E386.93536
G1 F1500 E380.43536
G0 F7200 X54.11 Y106.92
G0 X117.919 Y108.92
G0 X118.996 Y110
;TYPE:WALL-OUTER
G1 F1500 E386.93536
G1 F1800 X51 Y110 E399.72579
G1 X51 Y90 E403.4879
G1 X118.996 Y90 E416.27833
G1 X118.996 Y110 E420.04044
G0 F7200 X117.996 Y110
G0 X117.919 Y108.92
G0 X115.889 Y106.92
G0 X117.096 Y108.1
;TYPE:SKIN
G1 F1800 X88.896 Y108.1 E425.34501
G1 X88.896 Y91.9 E428.39232
G1 X117.096 Y91.9 E433.6969
G1 X117.096 Y108.1 E436.74421
G0 F7200 X115.919 Y106.92
G0 X115.889 Y93.468
G0 X116.096 Y93.468
G1 F1800 X115.527 Y92.9 E436.89544
G0 F7200 X115.527 Y93.11
G0 X112.699 Y93.11
G0 X112.699 Y92.9
G1 F1800 X116.096 Y96.297 E437.79912
G0 F7200 X115.889 Y96.297
G0 X115.889 Y99.125
G0 X116.096 Y99.125
G1 F1800 X109.87 Y92.9 E439.45524
G0 F7200 X109.87 Y93.11
G0 X107.042 Y93.11
G0 X107.042 Y92.9
G1 F1800 X116.096 Y101.953 E441.86366
G0 F7200 X115.889 Y101.953
G0 X115.889 Y104.782
G0 X116.096 Y104.782
G1 F1800 X104.213 Y92.9 E445.02466
G0 F7200 X104.213 Y93.11
G0 X101.385 Y93.11
G0 X101.385 Y92.9
G1 F1800 X115.585 Y107.1 E448.80216
G0 F7200 X115.585 Y106.89
G0 X112.757 Y106.89
G0 X112.757 Y107.1
G1 F1800 X98.557 Y92.9 E452.57967
G0 F7200 X98.557 Y93.11
G0 X95.728 Y93.11
G0 X95.728 Y92.9
G1 F1800 X109.928 Y107.1 E456.35717
G0 F7200 X109.928 Y106.89
G0 X107.1 Y106.89
G0 X107.1 Y107.1
G1 F1800 X92.9 Y92.9 E460.13468
G0 F7200 X92.9 Y93.11
G0 X90.071 Y93.11
G0 X90.071 Y92.9
G1 F1800 X104.271 Y107.1 E463.91218
G0 F7200 X104.271 Y106.89
G0 X101.443 Y106.89
G0 X101.443 Y107.1
G1 F1800 X89.896 Y95.553 E466.98393
G0 F7200 X89.896 Y98.381
G1 F1800 X98.615 Y107.1 E469.30337
G0 F7200 X98.615 Y106.89
G0 X95.786 Y106.89
G0 X95.786 Y107.1
G1 F1800 X89.896 Y101.21 E470.87024
G0 F7200 X89.896 Y104.038
G1 F1800 X92.958 Y107.1 E471.6848
G1 X93.311 Y107.453
G0 F7200 X93.311 Y104.99
;MESH:NONMESH
G0 F600 Z2.1
G0 F7200 X54.08 Y93.08
G0 X52.631 Y90.8
;TIME_ELAPSED:134.723794
;LAYER:3
;TYPE:FILL
;MESH:example.stl
G1 F3600 X51.8 Y91.631 E471.90586
G0 F7200 X54.08 Y93.08
G0 X54.08 Y106.92
G0 X51.8 Y108.368
G1 F3600 X52.631 Y109.2 E472.12706
G0 F7200 X54.08 Y106.92
G0 X60.117 Y106.89
G0 X60.117 Y108.2
G1 F900 X52.8 Y100.883 E473.29495
G0 F7200 X54.11 Y100.883
G0 X54.11 Y98.054
G0 X52.8 Y98.054
G1 F900 X62.945 Y108.2 E474.9143
G0 F7200 X62.945 Y106.89
G0 X65.774 Y106.89
G0 X65.774 Y108.2
G1 F900 X52.8 Y95.226 E476.98511
G0 F7200 X54.11 Y95.226
G0 X54.08 Y93.08
G0 X52.8 Y92.398
G1 F900 X68.602 Y108.2 E479.50732
G0 F7200 X68.602 Y106.89
G0 X71.431 Y106.89
G0 X71.431 Y108.2
G1 F900 X55.031 Y91.8 E482.12497
G0 F7200 X55.031 Y93.11
G0 X57.859 Y93.11
G0 X57.859 Y91.8
G1 F900 X72.199 Y106.14 E484.41382
G0 F7200 X72.199 Y103.312
G1 F900 X60.687 Y91.8 E486.25128
G0 F7200 X60.687 Y93.11
G0 X63.516 Y93.11
G0 X63.516 Y91.8
G1 F900 X72.199 Y100.483 E487.6372
G0 F7200 X72.199 Y97.655
G1 F900 X66.344 Y91.8 E488.57173
G0 F7200 X66.344 Y93.11
G0 X69.173 Y93.11
G0 X69.173 Y91.8
G1 F900 X72.199 Y94.827 E489.0548
G1 F1500 E482.5548
G0 F7200 X102.919 Y108.92
