;FLAVOR:Marlin
;TIME:196
;Filament used: 0.719352m
;Layer height: 0.6
;MINX:43
;MINY:82
;MINZ:0.3
;MAXX:153.249
;MAXY:118
;MAXZ:3.9
;TARGET_MACHINE.NAME:Unknown
;Generated with Cura_SteamEngine 5.12.0
M104 S200
M105
M109 S200
G28 ;Home
G1 Z15.0 F6000 ;Move the platform down 15mm
;Prime the extruder
G92 E0
G1 F200 E3
G92 E0
M82 ;absolute extrusion mode
G92 E0
G92 E0
G1 F1500 E-6.5
;LAYER_COUNT:7
;LAYER:0
M107
G0 F3600 X46.694 Y82.839 Z0.3
;TYPE:SKIRT
G1 F1500 E0
G1 F1800 X45.864 Y83.341 E0.09123
G1 X44.908 Y84.186 E0.21123
G1 X44.312 Y84.936 E0.30134
G1 X43.768 Y85.793 E0.39681
G1 X43.407 Y86.677 E0.48661
G1 X43.119 Y87.668 E0.58368
G1 X43 Y88.781 E0.68895
G1 X43 Y111.411 E2.81737
G1 X43.185 Y112.654 E2.93556
G1 X43.518 Y113.621 E3.03175
G1 X43.839 Y114.306 E3.1029
G1 X44.341 Y115.136 E3.19414
G1 X45.186 Y116.092 E3.31414
G1 X45.936 Y116.688 E3.40424
G1 X46.793 Y117.232 E3.49971
G1 X47.677 Y117.593 E3.58952
G1 X48.668 Y117.881 E3.68658
G1 X49.781 Y118 E3.79186
G1 X146.66 Y118 E12.9036
G1 X147.892 Y117.817 E13.02074
G1 X148.941 Y117.458 E13.12502
G1 X149.591 Y117.14 E13.19308
G1 X150.376 Y116.666 E13.27933
G1 X151.341 Y115.815 E13.40034
G1 X151.937 Y115.064 E13.49051
G1 X152.481 Y114.207 E13.58598
G1 X152.842 Y113.323 E13.67579
G1 X153.13 Y112.332 E13.77285
G1 X153.249 Y111.219 E13.87813
G1 X153.249 Y88.589 E16.00655
G1 X153.064 Y87.346 E16.12474
G1 X152.731 Y86.379 E16.22093
G1 X152.41 Y85.694 E16.29208
G1 X151.908 Y84.864 E16.38331
G1 X151.063 Y83.908 E16.50332
G1 X150.313 Y83.312 E16.59342
G1 X149.456 Y82.768 E16.68889
G1 X148.572 Y82.407 E16.77869
G1 X147.581 Y82.119 E16.87576
G1 X146.468 Y82 E16.98103
G1 X49.589 Y82 E26.09277
G1 X48.346 Y82.185 E26.21097
G1 X47.379 Y82.518 E26.30716
G1 X46.694 Y82.839 E26.37831
G0 F3600 X47.632 Y84.609
G1 F1800 X48.137 Y84.372 E26.43078
G1 X48.823 Y84.136 E26.49901
G1 X49.736 Y84 E26.58583
G1 X146.358 Y84 E35.67339
G1 X147.198 Y84.09 E35.75285
G1 X147.91 Y84.297 E35.82259
G1 X148.534 Y84.552 E35.88599
G1 X149.152 Y84.944 E35.95482
G1 X149.681 Y85.364 E36.01835
G1 X150.291 Y86.055 E36.10504
G1 X150.64 Y86.632 E36.16846
G1 X150.877 Y87.137 E36.22093
G1 X151.113 Y87.823 E36.28916
G1 X151.249 Y88.736 E36.37598
G1 X151.249 Y111.109 E38.48022
G1 X151.159 Y111.949 E38.55968
G1 X150.952 Y112.661 E38.62942
G1 X150.697 Y113.285 E38.69282
G1 X150.305 Y113.903 E38.76165
G1 X149.885 Y114.432 E38.82518
G1 X149.188 Y115.047 E38.9126
G1 X148.557 Y115.428 E38.98193
G1 X148.173 Y115.607 E39.02178
G1 X147.419 Y115.865 E39.09673
G1 X146.513 Y116 E39.18288
G1 X49.891 Y116 E48.27045
G1 X49.051 Y115.91 E48.34991
G1 X48.339 Y115.703 E48.41964
G1 X47.715 Y115.448 E48.48304
G1 X47.097 Y115.056 E48.55188
G1 X46.568 Y114.636 E48.6154
G1 X45.958 Y113.945 E48.7021
G1 X45.609 Y113.368 E48.76552
G1 X45.372 Y112.863 E48.81799
G1 X45.136 Y112.177 E48.88622
G1 X45 Y111.264 E48.97304
G1 X45 Y88.891 E51.07728
G1 X45.09 Y88.051 E51.15673
G1 X45.297 Y87.339 E51.22647
G1 X45.552 Y86.715 E51.28987
G1 X45.944 Y86.097 E51.3587
G1 X46.364 Y85.568 E51.42223
G1 X47.055 Y84.958 E51.50892
G1 X47.632 Y84.609 E51.57235
G0 F3600 X49.575 Y88.095
G1 F1800 X49.884 Y88 E51.60275
G1 X146.249 Y88 E60.66615
G1 X146.528 Y88.04 E60.69266
G1 X146.785 Y88.156 E60.71918
G1 X147 Y88.339 E60.74573
G1 X147.154 Y88.575 E60.77224
G1 X147.249 Y88.884 E60.80264
G1 X147.249 Y111 E62.88271
G1 X147.209 Y111.279 E62.90922
G1 X147.093 Y111.536 E62.93574
G1 X146.91 Y111.751 E62.9623
G1 X146.674 Y111.905 E62.9888
G1 X146.365 Y112 E63.0192
G1 X50 Y112 E72.0826
G1 X49.721 Y111.96 E72.10911
G1 X49.464 Y111.844 E72.13563
G1 X49.249 Y111.661 E72.16218
G1 X49.095 Y111.425 E72.18869
G1 X49 Y111.116 E72.21909
G1 X49 Y89 E74.29916
G1 X49.04 Y88.721 E74.32567
G1 X49.156 Y88.464 E74.35219
G1 X49.339 Y88.249 E74.37875
G1 X49.575 Y88.095 E74.40525
G0 F3600 X48.482 Y86.42
G1 F1800 X48.987 Y86.183 E74.45772
G1 X49.296 Y86.088 E74.48812
G1 X49.884 Y86 E74.54404
G1 X146.249 Y86 E83.60744
G1 X146.812 Y86.06 E83.66069
G1 X147.351 Y86.217 E83.71349
G1 X147.608 Y86.333 E83.74001
G1 X148.081 Y86.633 E83.79269
G1 X148.296 Y86.816 E83.81925
G1 X148.675 Y87.246 E83.87316
G1 X148.829 Y87.482 E83.89966
G1 X149.066 Y87.987 E83.95213
G1 X149.161 Y88.296 E83.98253
G1 X149.249 Y88.884 E84.03845
G1 X149.249 Y111 E86.11852
G1 X149.189 Y111.563 E86.17177
G1 X149.032 Y112.102 E86.22458
G1 X148.916 Y112.359 E86.2511
G1 X148.616 Y112.832 E86.30378
G1 X148.433 Y113.047 E86.33033
G1 X148.003 Y113.426 E86.38424
G1 X147.523 Y113.716 E86.43699
G1 X146.953 Y113.912 E86.49368
G1 X146.365 Y114 E86.5496
G1 X50 Y114 E95.61299
G1 X49.437 Y113.94 E95.66624
G1 X48.898 Y113.783 E95.71904
G1 X48.641 Y113.667 E95.74556
G1 X48.168 Y113.367 E95.79824
G1 X47.953 Y113.184 E95.8248
G1 X47.574 Y112.754 E95.87871
G1 X47.42 Y112.518 E95.90521
G1 X47.183 Y112.013 E95.95768
G1 X47.088 Y111.704 E95.98808
G1 X47 Y111.116 E96.044
G1 X47 Y89 E98.12408
G1 X47.06 Y88.437 E98.17733
G1 X47.217 Y87.898 E98.23013
G1 X47.333 Y87.641 E98.25665
G1 X47.633 Y87.168 E98.30933
G1 X47.816 Y86.953 E98.33588
G1 X48.246 Y86.574 E98.38979
G1 X48.482 Y86.42 E98.4163
G1 F1500 E91.9163
;MESH:example.stl
G0 F3600 X52.024 Y91.024
G0 X145.248 Y110
;TYPE:WALL-OUTER
G1 F1500 E98.4163
G1 F1800 X51 Y110 E107.28058
G1 X51 Y90 E109.16164
G1 X145.248 Y90 E118.02593
G1 X145.248 Y110 E119.90698
G0 F3600 X144.248 Y110
G0 X144.169 Y108.92
G0 X142.139 Y106.92
G0 X143.348 Y108.1
;TYPE:SKIN
G1 F1800 X52.9 Y108.1 E128.41387
G1 X52.9 Y91.9 E129.93752
G1 X143.348 Y91.9 E138.44441
G1 X143.348 Y108.1 E139.96806
G0 F3600 X142.169 Y106.92
G0 X142.139 Y94.264
G0 X142.348 Y94.264
G1 F1800 X140.983 Y92.9 E140.14956
G0 F3600 X140.983 Y93.11
G0 X138.155 Y93.11
G0 X138.155 Y92.9
G1 F1800 X142.348 Y97.093 E140.70727
G0 F3600 X142.139 Y97.093
G0 X142.139 Y99.921
G0 X142.348 Y99.921
G1 F1800 X135.326 Y92.9 E141.64121
G0 F3600 X135.326 Y93.11
G0 X132.498 Y93.11
G0 X132.498 Y92.9
G1 F1800 X142.348 Y102.75 E142.95136
G0 F3600 X142.139 Y102.75
G0 X142.139 Y105.578
G0 X142.348 Y105.578
G1 F1800 X129.669 Y92.9 E144.63774
G0 F3600 X129.669 Y93.11
G0 X126.841 Y93.11
G0 X126.841 Y92.9
G1 F1800 X141.041 Y107.1 E146.52649
G0 F3600 X141.041 Y106.89
G0 X138.213 Y106.89
G0 X138.213 Y107.1
G1 F1800 X124.012 Y92.9 E148.41531
G0 F3600 X124.012 Y93.11
G0 X121.184 Y93.11
G0 X121.184 Y92.9
G1 F1800 X135.384 Y107.1 E150.30406
G0 F3600 X135.384 Y106.89
G0 X132.556 Y106.89
G0 X132.556 Y107.1
G1 F1800 X118.356 Y92.9 E152.19281
G0 F3600 X118.356 Y93.11
G0 X115.527 Y93.11
G0 X115.527 Y92.9
G1 F1800 X129.727 Y107.1 E154.08157
G0 F3600 X129.727 Y106.89
G0 X126.899 Y106.89
G0 X126.899 Y107.1
G1 F1800 X112.699 Y92.9 E155.97032
G0 F3600 X112.699 Y93.11
G0 X109.87 Y93.11
G0 X109.87 Y92.9
G1 F1800 X124.07 Y107.1 E157.85907
G0 F3600 X124.07 Y106.89
G0 X121.242 Y106.89
G0 X121.242 Y107.1
G1 F1800 X107.042 Y92.9 E159.74782
G0 F3600 X107.042 Y93.11
G0 X104.213 Y93.11
G0 X104.213 Y92.9
G1 F1800 X118.414 Y107.1 E161.63664
G0 F3600 X118.414 Y106.89
G0 X115.585 Y106.89
G0 X115.585 Y107.1
G1 F1800 X101.385 Y92.9 E163.52539
G0 F3600 X101.385 Y93.11
G0 X98.557 Y93.11
G0 X98.557 Y92.9
G1 F1800 X112.757 Y107.1 E165.41414
G0 F3600 X112.757 Y106.89
G0 X109.928 Y106.89
G0 X109.928 Y107.1
G1 F1800 X95.728 Y92.9 E167.3029
G0 F3600 X95.728 Y93.11
G0 X92.9 Y93.11
G0 X92.9 Y92.9
G1 F1800 X107.1 Y107.1 E169.19165
G0 F3600 X107.1 Y106.89
G0 X104.271 Y106.89
G0 X104.271 Y107.1
G1 F1800 X90.071 Y92.9 E171.0804
G0 F3600 X90.071 Y93.11
G0 X87.243 Y93.11
G0 X87.243 Y92.9
G1 F1800 X101.443 Y107.1 E172.96915
G0 F3600 X101.443 Y106.89
G0 X98.615 Y106.89
G0 X98.615 Y107.1
G1 F1800 X84.414 Y92.9 E174.85797
G0 F3600 X84.414 Y93.11
G0 X81.586 Y93.11
G0 X81.586 Y92.9
G1 F1800 X95.786 Y107.1 E176.74672
G0 F3600 X95.786 Y106.89
G0 X92.958 Y106.89
G0 X92.958 Y107.1
G1 F1800 X78.758 Y92.9 E178.63548
G0 F3600 X78.758 Y93.11
G0 X75.929 Y93.11
G0 X75.929 Y92.9
G1 F1800 X90.129 Y107.1 E180.52423
G0 F3600 X90.129 Y106.89
G0 X87.301 Y106.89
G0 X87.301 Y107.1
G1 F1800 X73.101 Y92.9 E182.41298
G0 F3600 X73.101 Y93.11
G0 X70.272 Y93.11
G0 X70.272 Y92.9
G1 F1800 X84.472 Y107.1 E184.30173
G0 F3600 X84.472 Y106.89
G0 X81.644 Y106.89
G0 X81.644 Y107.1
G1 F1800 X67.444 Y92.9 E186.19049
G0 F3600 X67.444 Y93.11
G0 X64.615 Y93.11
G0 X64.615 Y92.9
G1 F1800 X78.816 Y107.1 E188.0793
G0 F3600 X78.816 Y106.89
G0 X75.987 Y106.89
G0 X75.987 Y107.1
G1 F1800 X61.787 Y92.9 E189.96806
G0 F3600 X61.787 Y93.11
G0 X58.959 Y93.11
G0 X58.959 Y92.9
G1 F1800 X73.159 Y107.1 E191.85681
G0 F3600 X73.159 Y106.89
G0 X70.33 Y106.89
G0 X70.33 Y107.1
G1 F1800 X56.13 Y92.9 E193.74556
G0 F3600 X56.13 Y93.11
G0 X54.11 Y93.498
G0 X53.9 Y93.498
G1 F1800 X67.502 Y107.1 E195.55477
G0 F3600 X67.502 Y106.89
G0 X64.673 Y106.89
G0 X64.673 Y107.1
G1 F1800 X53.9 Y96.326 E196.98776
G0 F3600 X54.11 Y96.326
G0 X54.11 Y99.155
G0 X53.9 Y99.155
G1 F1800 X61.845 Y107.1 E198.04453
G0 F3600 X61.845 Y106.89
G0 X59.017 Y106.89
G0 X59.017 Y107.1
G1 F1800 X53.9 Y101.983 E198.72515
G0 F3600 X54.11 Y101.983
G0 X54.11 Y104.812
G0 X53.9 Y104.812
G1 F1800 X56.188 Y107.1 E199.02948
G0 F3600 X56.188 Y104.99
;MESH:NONMESH
G0 F600 Z0.9
G0 F3600 X133.996 Y106.89
G0 X133.996 Y110
;TIME_ELAPSED:81.146109
;LAYER:1
M106 S255
;TYPE:WALL-OUTER
;MESH:example.stl
G1 F1800 X51 Y110 E214.64149
G1 X51 Y90 E218.4036
G1 X133.996 Y90 E234.01561
G1 X133.9960 Y110.0000 Z0.6402 E237.77772
G1 Z0.9000 ;ZAA_RESET
G0 F5400 X132.996 Y110
G0 X132.919 Y108.92
G0 X130.889 Y106.92
G0 X132.096 Y108.1
;TYPE:SKIN
G1 F1800 X52.9 Y108.1 E252.67493
G1 X52.9 Y91.9 E255.72224
G1 X132.096 Y91.9 E270.61945
G1 X132.0960 Y108.1000 Z0.7162 E273.66676
G1 Z0.9000 ;ZAA_RESET
G0 F5400 X130.919 Y106.92
G0 X130.488 Y107.1
G1 X130.7920 Y106.7960 Z0.7683 E273.74869 F1800
G1 X131.0960 Y106.4920 Z0.7562 E273.82850
G1 Z0.9000 ;ZAA_RESET
G0 F5400 X130.889 Y106.492
G0 X130.889 Y103.663
G0 X131.096 Y103.663
G1 X130.7524 Y104.0067 Z0.7699 E273.90929 F1800
G1 X130.4088 Y104.3504 Z0.7836 E273.99243
G1 X130.0652 Y104.6941 Z0.7974 E274.07794
G1 X129.7216 Y105.0378 Z0.8111 E274.16582
G1 X129.3780 Y105.3815 Z0.8249 E274.25605
G1 X129.0344 Y105.7252 Z0.8386 E274.34865
G1 X128.6908 Y106.0689 Z0.8524 E274.44362
G1 X128.3472 Y106.4126 Z0.8661 E274.54094
G1 X128.0036 Y106.7563 Z0.8799 E274.64063
G1 X127.6600 Y107.1000 Z0.8936 E274.74268
G1 Z0.9000 ;ZAA_RESET
G0 F5400 X127.66 Y106.89
G0 X124.831 Y106.89
G0 X124.831 Y107.1
G1 X125.1791 Y106.7519 Z0.9928 E274.85434 F1800
G1 X125.5271 Y106.4039 Z0.9789 E274.96376
G1 X125.8752 Y106.0558 Z0.9650 E275.07094
G1 X126.2232 Y105.7078 Z0.9511 E275.17587
G1 X126.5713 Y105.3597 Z0.9371 E275.27856
G1 X126.9193 Y105.0117 Z0.9232 E275.37900
G1 X127.2674 Y104.6636 Z0.9093 E275.47720
G1 X127.6154 Y104.3156 Z0.8954 E275.57316
G1 X127.9635 Y103.9675 Z0.8815 E275.66687
G1 X128.3116 Y103.6194 Z0.8675 E275.75834
G1 X128.6596 Y103.2714 Z0.8536 E275.84756
G1 X129.0077 Y102.9233 Z0.8397 E275.93454
G1 X129.3557 Y102.5753 Z0.8258 E276.01928
G1 X129.7038 Y102.2272 Z0.8118 E276.10177
G1 X130.0518 Y101.8792 Z0.7979 E276.18202
G1 X130.3999 Y101.5311 Z0.7840 E276.26003
G1 X130.7479 Y101.1831 Z0.7701 E276.33579
G1 X131.0960 Y100.8350 Z0.7562 E276.40931
G1 Z0.9000 ;ZAA_RESET
G0 F5400 X130.889 Y100.835
G0 X130.889 Y98.006
G0 X131.096 Y98.006
G1 X130.7463 Y98.3558 Z0.7701 E276.47713 F1800
G1 X130.3965 Y98.7055 Z0.7841 E276.54696
G1 X130.0468 Y99.0553 Z0.7981 E276.61882
G1 X129.6971 Y99.4051 Z0.8121 E276.69269
G1 X129.3473 Y99.7548 Z0.8261 E276.76857
G1 X128.9976 Y100.1046 Z0.8401 E276.84648
G1 X128.6479 Y100.4544 Z0.8541 E276.92641
G1 X128.2982 Y100.8042 Z0.8681 E277.00835
G1 X127.9484 Y101.1539 Z0.8821 E277.09231
G1 X127.5987 Y101.5037 Z0.8961 E277.17829
G1 X127.2490 Y101.8535 Z0.9100 E277.26628
G1 X126.8992 Y102.2032 Z0.9240 E277.35630
G1 X126.5495 Y102.5530 Z0.9380 E277.44833
G1 X126.1998 Y102.9028 Z0.9520 E277.54238
G1 X125.8500 Y103.2525 Z0.9660 E277.63845
G1 X125.5003 Y103.6023 Z0.9800 E277.73653
G1 X125.1506 Y103.9521 Z0.9940 E277.83663
G1 X124.8008 Y104.3018 Z1.0080 E277.93876
G1 X124.4511 Y104.6516 Z1.0220 E278.04289
G1 X124.1014 Y105.0014 Z1.0359 E278.14905
G1 X123.7517 Y105.3512 Z1.0499 E278.25723
G1 X123.4019 Y105.7009 Z1.0639 E278.36742
G1 X123.0522 Y106.0507 Z1.0779 E278.47963
G1 X122.7025 Y106.4005 Z1.0919 E278.59386
G1 X122.3527 Y106.7502 Z1.1059 E278.71011
G1 X122.0030 Y107.1000 Z1.1199 E278.82837
G1 Z0.9000 ;ZAA_RESET
G0 F5400 X122.003 Y106.89
G0 X119.174 Y106.89
G0 X119.174 Y107.1
G1 X119.5246 Y106.7494 Z1.2190 E278.95059 F1800
G1 X119.8753 Y106.3987 Z1.2050 E279.07281
G1 X120.2259 Y106.0481 Z1.1910 E279.19381
G1 X120.5766 Y105.6974 Z1.1769 E279.31290
G1 X120.9272 Y105.3468 Z1.1629 E279.43008
G1 X121.2779 Y104.9961 Z1.1489 E279.54536
G1 X121.6285 Y104.6455 Z1.1349 E279.65874
G1 X121.9792 Y104.2948 Z1.1208 E279.77021
G1 X122.3298 Y103.9442 Z1.1068 E279.87977
G1 X122.6805 Y103.5935 Z1.0928 E279.98744
G1 X123.0311 Y103.2429 Z1.0788 E280.09319
G1 X123.3818 Y102.8922 Z1.0647 E280.19704
G1 X123.7324 Y102.5416 Z1.0507 E280.29899
G1 X124.0831 Y102.1909 Z1.0367 E280.39903
G1 X124.4337 Y101.8403 Z1.0227 E280.49717
G1 X124.7844 Y101.4896 Z1.0086 E280.59340
G1 X125.1350 Y101.1390 Z0.9946 E280.68773
G1 X125.4856 Y100.7884 Z0.9806 E280.78015
G1 X125.8363 Y100.4377 Z0.9665 E280.87067
G1 X126.1869 Y100.0871 Z0.9525 E280.95929
G1 X126.5376 Y99.7364 Z0.9385 E281.04599
G1 X126.8882 Y99.3858 Z0.9245 E281.13080
G1 X127.2389 Y99.0351 Z0.9104 E281.21370
G1 X127.5895 Y98.6845 Z0.8964 E281.29469
G1 X127.9402 Y98.3338 Z0.8824 E281.37378
G1 X128.2908 Y97.9832 Z0.8684 E281.45097
G1 X128.6415 Y97.6325 Z0.8543 E281.52625
G1 X128.9921 Y97.2819 Z0.8403 E281.59962
G1 X129.3428 Y96.9312 Z0.8263 E281.67110
G1 X129.6934 Y96.5806 Z0.8123 E281.74066
G1 X130.0441 Y96.2299 Z0.7982 E281.80832
G1 X130.3947 Y95.8793 Z0.7842 E281.87408
G1 X130.7454 Y95.5286 Z0.7702 E281.93793
G1 X131.0960 Y95.1780 Z0.7562 E281.99988
G1 Z0.9000 ;ZAA_RESET
G0 F5400 X130.889 Y95.178
G0 X130.546 Y93.11
G0 X130.546 Y92.9
G1 X130.1997 Y93.2463 Z0.7920 E282.06045 F1800
G1 X129.8533 Y93.5927 Z0.8059 E282.12272
G1 X129.5070 Y93.9390 Z0.8197 E282.18669
G1 X129.1606 Y94.2854 Z0.8336 E282.25238
G1 X128.8143 Y94.6317 Z0.8474 E282.31976
G1 X128.4680 Y94.9780 Z0.8613 E282.38886
G1 X128.1216 Y95.3244 Z0.8751 E282.45966
G1 X127.7753 Y95.6707 Z0.8890 E282.53216
G1 X127.4289 Y96.0171 Z0.9028 E282.60637
G1 X127.0826 Y96.3634 Z0.9167 E282.68228
G1 X126.7362 Y96.7098 Z0.9306 E282.75990
G1 X126.3899 Y97.0561 Z0.9444 E282.83923
G1 X126.0436 Y97.4024 Z0.9583 E282.92026
G1 X125.6972 Y97.7488 Z0.9721 E283.00300
G1 X125.3509 Y98.0951 Z0.9860 E283.08744
G1 X125.0045 Y98.4415 Z0.9998 E283.17358
G1 X124.6582 Y98.7878 Z1.0137 E283.26144
G1 X124.3119 Y99.1341 Z1.0275 E283.35099
G1 X123.9655 Y99.4805 Z1.0414 E283.44226
G1 X123.6192 Y99.8268 Z1.0552 E283.53522
G1 X123.2728 Y100.1732 Z1.0691 E283.62990
G1 X122.9265 Y100.5195 Z1.0829 E283.72628
G1 X122.5801 Y100.8659 Z1.0968 E283.82436
G1 X122.2338 Y101.2122 Z1.1106 E283.92415
G1 X121.8875 Y101.5585 Z1.1245 E284.02565
G1 X121.5411 Y101.9049 Z1.1384 E284.12885
G1 X121.1948 Y102.2512 Z1.1522 E284.23375
G1 X120.8484 Y102.5976 Z1.1661 E284.34036
G1 X120.5021 Y102.9439 Z1.1799 E284.44868
G1 X120.1558 Y103.2902 Z1.1938 E284.55870
G1 X119.8094 Y103.6366 Z1.2076 E284.66949
G1 X119.4631 Y103.9829 Z1.2215 E284.78028
G1 X119.1167 Y104.3293 Z1.2353 E284.89107
G1 X118.7704 Y104.6756 Z1.2492 E285.00186
G1 X118.4240 Y105.0220 Z1.2630 E285.11265
G1 X118.0777 Y105.3683 Z1.2769 E285.22344
G1 X117.7314 Y105.7146 Z1.2907 E285.33422
G1 X117.3850 Y106.0610 Z1.3046 E285.44501
G1 X117.0387 Y106.4073 Z1.3185 E285.55580
G1 X116.6923 Y106.7537 Z1.3323 E285.66659
G1 X116.3460 Y107.1000 Z1.3462 E285.77738
G1 Z0.9000 ;ZAA_RESET
G0 F5400 X116.346 Y106.89
G0 X113.518 Y106.89
G0 X113.518 Y107.1
G1 X113.8643 Y106.7537 Z1.4454 E285.87946 F1800
G1 X114.2107 Y106.4073 Z1.4316 E285.98154
G1 X114.5570 Y106.0610 Z1.4177 E286.08362
G1 X114.9034 Y105.7146 Z1.4039 E286.18571
G1 X115.2497 Y105.3683 Z1.3900 E286.28779
G1 X115.5960 Y105.0220 Z1.3762 E286.38987
G1 X115.9424 Y104.6756 Z1.3623 E286.49195
G1 X116.2887 Y104.3293 Z1.3485 E286.59403
G1 X116.6351 Y103.9829 Z1.3346 E286.69611
