;FLAVOR:Marlin
;TIME:1521
;Filament used: 1.47884m
;Layer height: 0.2
;MINX:46.8
;MINY:85.8
;MINZ:0.3
;MAXX:149.449
;MAXY:114.2
;MAXZ:3.9
;TARGET_MACHINE.NAME:Unknown
;ZAA_APPLIED
;Generated with Cura_SteamEngine 5.12.0
M140 S60
M105
M190 S60
M104 S175
M105
M109 S175
M203 Z3              ; Limitar velocidade maxima do eixo Z a 3mm/s
G28 Z                ; Home apenas eixo Z
G1 Z10 F180          ; Levantar Z antes de mover XY
G28 X Y              ; Home eixos X e Y
G1 X10 Y10 F3000     ; Mover para frente da mesa (Y baixo = frente)
G1 Z0.3 F180         ; Baixar bico para altura de purga
G92 E0               ; Zerar extrusor
G1 X150 Y10 E15 F800 ; Linha de purga na frente da mesa
G92 E0               ; Zerar extrusor novamente
G1 Z0.2 F180         ; Altura da primeira camada
M82 ;absolute extrusion mode
G92 E0
G92 E0
;LAYER_COUNT:19
;LAYER:0
M107
G0 F3600 X48.622 Y86.126 Z0.3
;TYPE:SKIRT
G1 F1800 X49.093 Y85.943 E0.02521
G1 X49.588 Y85.837 E0.05047
G1 X50.24 Y85.801 E0.08304
G1 X145.588 Y85.8 E4.83997
G1 X146.286 Y85.81 E4.8748
G1 X146.789 Y85.857 E4.90001
G1 X147.279 Y85.983 E4.92525
G1 X147.743 Y86.185 E4.95049
G1 X148.169 Y86.457 E4.97571
G1 X148.547 Y86.792 E5.00091
G1 X148.867 Y87.183 E5.02612
G1 X149.122 Y87.62 E5.05136
G1 X149.305 Y88.091 E5.07657
G1 X149.412 Y88.585 E5.10179
G1 X149.448 Y89.24 E5.13451
G1 X149.449 Y110.308 E6.1856
G1 X149.439 Y111.035 E6.22187
G1 X149.392 Y111.538 E6.24708
G1 X149.266 Y112.028 E6.27232
G1 X149.065 Y112.492 E6.29755
G1 X148.793 Y112.918 E6.32276
G1 X148.458 Y113.297 E6.348
G1 X148.067 Y113.617 E6.37321
G1 X147.631 Y113.872 E6.39841
G1 X147.16 Y114.056 E6.42363
G1 X146.665 Y114.162 E6.44889
G1 X146.221 Y114.199 E6.47112
G1 X50.661 Y114.2 E11.23862
G1 X49.963 Y114.19 E11.27345
G1 X49.46 Y114.143 E11.29866
G1 X48.97 Y114.017 E11.3239
G1 X48.506 Y113.815 E11.34914
G1 X48.08 Y113.543 E11.37436
G1 X47.702 Y113.208 E11.39956
G1 X47.382 Y112.817 E11.42477
G1 X47.127 Y112.38 E11.45001
G1 X46.944 Y111.909 E11.47522
G1 X46.837 Y111.415 E11.50044
G1 X46.801 Y110.745 E11.53391
G1 X46.8 Y89.626 E12.58754
G1 X46.81 Y88.961 E12.62072
G1 X46.858 Y88.458 E12.64593
G1 X46.984 Y87.968 E12.67117
G1 X47.186 Y87.504 E12.69642
G1 X47.458 Y87.078 E12.72164
G1 X47.794 Y86.701 E12.74683
G1 X48.185 Y86.38 E12.77207
G1 X48.622 Y86.126 E12.79729
;MESH:example.stl
G0 F3600 X50.424 Y88.335
G0 X50.424 Y89.424
G0 X145.339 Y110.12
G0 X145.648 Y110.4
;TYPE:WALL-INNER
G1 F1800 X145.648 Y89.6 E13.835
G1 X50.6 Y89.6 E18.57697
G1 X50.6 Y110.4 E19.61468
G1 X145.648 Y110.4 E24.35665
G0 F3600 X146.048 Y110.8
;TYPE:WALL-OUTER
G1 F1800 X146.048 Y89.2 E25.43428
G1 X50.2 Y89.2 E30.21615
G1 X50.2 Y110.8 E31.29378
G1 X146.048 Y110.8 E36.07566
G0 F3600 X146.048 Y110.6
G0 X145.268 Y110.02
;TYPE:SKIN
G1 F1800 X50.98 Y110.02 E40.7797
G1 X50.98 Y89.98 E41.7795
G1 X145.268 Y89.98 E46.48355
G1 X145.268 Y110.02 E47.48335
G0 F3600 X144.486 Y90.18
G1 F1800 X145.068 Y90.762 E47.52441
G0 F3600 X145.068 Y91.328
G1 F1800 X143.92 Y90.18 E47.60541
G0 F3600 X143.355 Y90.18
G1 F1800 X145.068 Y91.893 E47.72627
G0 F3600 X145.068 Y92.459
G1 F1800 X142.789 Y90.18 E47.88707
G0 F3600 X142.223 Y90.18
G1 F1800 X145.068 Y93.025 E48.0878
G0 F3600 X145.068 Y93.591
G1 F1800 X141.658 Y90.18 E48.32843
G0 F3600 X141.092 Y90.18
G1 F1800 X145.068 Y94.156 E48.60896
G0 F3600 X145.068 Y94.722
G1 F1800 X140.526 Y90.18 E48.92942
G0 F3600 X139.96 Y90.18
G1 F1800 X145.068 Y95.288 E49.28982
G0 F3600 X145.068 Y95.853
G1 F1800 X139.395 Y90.18 E49.69008
G0 F3600 X138.829 Y90.18
G1 F1800 X145.068 Y96.419 E50.13027
G0 F3600 X145.068 Y96.985
G1 F1800 X138.263 Y90.18 E50.6104
G0 F3600 X137.698 Y90.18
G1 F1800 X145.068 Y97.55 E51.13039
G0 F3600 X145.068 Y98.116
G1 F1800 X137.132 Y90.18 E51.69032
G0 F3600 X136.566 Y90.18
G1 F1800 X145.068 Y98.682 E52.29018
G0 F3600 X145.068 Y99.247
G1 F1800 X136.001 Y90.18 E52.92991
G0 F3600 X135.435 Y90.18
G1 F1800 X145.068 Y99.813 E53.60957
G0 F3600 X145.068 Y100.379
G1 F1800 X134.869 Y90.18 E54.32916
G0 F3600 X134.304 Y90.18
G1 F1800 X145.068 Y100.944 E55.08862
G0 F3600 X145.068 Y101.51
G1 F1800 X133.738 Y90.18 E55.88802
G0 F3600 X133.172 Y90.18
G1 F1800 X145.068 Y102.076 E56.72734
G0 F3600 X145.068 Y102.641
G1 F1800 X132.607 Y90.18 E57.60653
G0 F3600 X132.041 Y90.18
G1 F1800 X145.068 Y103.207 E58.52566
G0 F3600 X145.068 Y103.773
G1 F1800 X131.475 Y90.18 E59.48472
G0 F3600 X130.91 Y90.18
G1 F1800 X145.068 Y104.339 E60.48368
G0 F3600 X145.068 Y104.904
G1 F1800 X130.344 Y90.18 E61.52253
G0 F3600 X129.778 Y90.18
G1 F1800 X145.068 Y105.47 E62.60133
G0 F3600 X145.068 Y106.036
G1 F1800 X129.212 Y90.18 E63.72005
G0 F3600 X128.647 Y90.18
G1 F1800 X145.068 Y106.601 E64.87864
G0 F3600 X145.068 Y107.167
G1 F1800 X128.081 Y90.18 E66.07717
G0 F3600 X127.515 Y90.18
G1 F1800 X145.068 Y107.733 E67.31563
G0 F3600 X145.068 Y108.298
G1 F1800 X126.95 Y90.18 E68.59395
G0 F3600 X126.384 Y90.18
G1 F1800 X145.068 Y108.864 E69.91221
G0 F3600 X145.068 Y109.43
G1 F1800 X125.818 Y90.18 E71.2704
G0 F3600 X125.253 Y90.18
G1 F1800 X144.893 Y109.82 E72.65611
G0 F3600 X144.327 Y109.82
G1 F1800 X124.687 Y90.18 E74.04181
G0 F3600 X124.121 Y90.18
G1 F1800 X143.761 Y109.82 E75.42752
G0 F3600 X143.195 Y109.82
G1 F1800 X123.556 Y90.18 E76.8132
G0 F3600 X122.99 Y90.18
G1 F1800 X142.63 Y109.82 E78.1989
G0 F3600 X142.064 Y109.82
G1 F1800 X122.424 Y90.18 E79.58461
G0 F3600 X121.859 Y90.18
G1 F1800 X141.498 Y109.82 E80.97028
G0 F3600 X140.933 Y109.82
G1 F1800 X121.293 Y90.18 E82.35599
G0 F3600 X120.727 Y90.18
G1 F1800 X140.367 Y109.82 E83.7417
G0 F3600 X139.801 Y109.82
G1 F1800 X120.161 Y90.18 E85.12741
G0 F3600 X119.596 Y90.18
G1 F1800 X139.236 Y109.82 E86.51312
G0 F3600 X138.67 Y109.82
G1 F1800 X119.03 Y90.18 E87.89882
G0 F3600 X118.464 Y90.18
G1 F1800 X138.104 Y109.82 E89.28453
G0 F3600 X137.539 Y109.82
G1 F1800 X117.899 Y90.18 E90.67024
G0 F3600 X117.333 Y90.18
G1 F1800 X136.973 Y109.82 E92.05595
G0 F3600 X136.407 Y109.82
G1 F1800 X116.767 Y90.18 E93.44166
G0 F3600 X116.202 Y90.18
G1 F1800 X135.842 Y109.82 E94.82736
G0 F3600 X135.276 Y109.82
G1 F1800 X115.636 Y90.18 E96.21307
G0 F3600 X115.07 Y90.18
G1 F1800 X134.71 Y109.82 E97.59878
G0 F3600 X134.145 Y109.82
G1 F1800 X114.505 Y90.18 E98.98449
G0 F3600 X113.939 Y90.18
G1 F1800 X133.579 Y109.82 E100.3702
G0 F3600 X133.013 Y109.82
G1 F1800 X113.373 Y90.18 E101.75591
G0 F3600 X112.808 Y90.18
G1 F1800 X132.447 Y109.82 E103.14158
G0 F3600 X131.882 Y109.82
G1 F1800 X112.242 Y90.18 E104.52729
G0 F3600 X111.676 Y90.18
G1 F1800 X131.316 Y109.82 E105.91299
G0 F3600 X130.75 Y109.82
G1 F1800 X111.111 Y90.18 E107.29867
G0 F3600 X110.545 Y90.18
G1 F1800 X130.185 Y109.82 E108.68437
G0 F3600 X129.619 Y109.82
G1 F1800 X109.979 Y90.18 E110.07008
G0 F3600 X109.413 Y90.18
G1 F1800 X129.053 Y109.82 E111.45579
G0 F3600 X128.488 Y109.82
G1 F1800 X108.848 Y90.18 E112.8415
G0 F3600 X108.282 Y90.18
G1 F1800 X127.922 Y109.82 E114.22721
G0 F3600 X127.356 Y109.82
G1 F1800 X107.716 Y90.18 E115.61292
G0 F3600 X107.151 Y90.18
G1 F1800 X126.791 Y109.82 E116.99862
G0 F3600 X126.225 Y109.82
G1 F1800 X106.585 Y90.18 E118.38433
G0 F3600 X106.019 Y90.18
G1 F1800 X125.659 Y109.82 E119.77004
G0 F3600 X125.094 Y109.82
G1 F1800 X105.454 Y90.18 E121.15575
G0 F3600 X104.888 Y90.18
G1 F1800 X124.528 Y109.82 E122.54146
G0 F3600 X123.962 Y109.82
G1 F1800 X104.322 Y90.18 E123.92716
G0 F3600 X103.757 Y90.18
G1 F1800 X123.396 Y109.82 E125.31284
G0 F3600 X122.831 Y109.82
G1 F1800 X103.191 Y90.18 E126.69854
G0 F3600 X102.625 Y90.18
G1 F1800 X122.265 Y109.82 E128.08425
G0 F3600 X121.699 Y109.82
G1 F1800 X102.06 Y90.18 E129.46993
G0 F3600 X101.494 Y90.18
G1 F1800 X121.134 Y109.82 E130.85563
G0 F3600 X120.568 Y109.82
G1 F1800 X100.928 Y90.18 E132.24134
G0 F3600 X100.362 Y90.18
G1 F1800 X120.002 Y109.82 E133.62705
G0 F3600 X119.437 Y109.82
G1 F1800 X99.797 Y90.18 E135.01276
G0 F3600 X99.231 Y90.18
G1 F1800 X118.871 Y109.82 E136.39847
G0 F3600 X118.305 Y109.82
G1 F1800 X98.665 Y90.18 E137.78417
G0 F3600 X98.1 Y90.18
G1 F1800 X117.74 Y109.82 E139.16988
G0 F3600 X117.174 Y109.82
G1 F1800 X97.534 Y90.18 E140.55559
G0 F3600 X96.968 Y90.18
G1 F1800 X116.608 Y109.82 E141.9413
G0 F3600 X116.043 Y109.82
G1 F1800 X96.403 Y90.18 E143.32701
G0 F3600 X95.837 Y90.18
G1 F1800 X115.477 Y109.82 E144.71271
G0 F3600 X114.911 Y109.82
G1 F1800 X95.271 Y90.18 E146.09842
G0 F3600 X94.706 Y90.18
G1 F1800 X114.346 Y109.82 E147.48413
G0 F3600 X113.78 Y109.82
G1 F1800 X94.14 Y90.18 E148.86984
G0 F3600 X93.574 Y90.18
G1 F1800 X113.214 Y109.82 E150.25555
G0 F3600 X112.648 Y109.82
G1 F1800 X93.009 Y90.18 E151.64122
G0 F3600 X92.443 Y90.18
G1 F1800 X112.083 Y109.82 E153.02693
G0 F3600 X111.517 Y109.82
G1 F1800 X91.877 Y90.18 E154.41264
G0 F3600 X91.312 Y90.18
G1 F1800 X110.951 Y109.82 E155.79831
G0 F3600 X110.386 Y109.82
G1 F1800 X90.746 Y90.18 E157.18402
G0 F3600 X90.18 Y90.18
G1 F1800 X109.82 Y109.82 E158.56972
G0 F3600 X109.254 Y109.82
G1 F1800 X89.614 Y90.18 E159.95543
G0 F3600 X89.049 Y90.18
G1 F1800 X108.689 Y109.82 E161.34114
G0 F3600 X108.123 Y109.82
G1 F1800 X88.483 Y90.18 E162.72685
G0 F3600 X87.917 Y90.18
G1 F1800 X107.557 Y109.82 E164.11256
G0 F3600 X106.992 Y109.82
G1 F1800 X87.352 Y90.18 E165.49827
G0 F3600 X86.786 Y90.18
G1 F1800 X106.426 Y109.82 E166.88397
G0 F3600 X105.86 Y109.82
G1 F1800 X86.22 Y90.18 E168.26968
G0 F3600 X85.655 Y90.18
G1 F1800 X105.295 Y109.82 E169.65539
G0 F3600 X104.729 Y109.82
G1 F1800 X85.089 Y90.18 E171.0411
G0 F3600 X84.523 Y90.18
G1 F1800 X104.163 Y109.82 E172.42681
G0 F3600 X103.598 Y109.82
G1 F1800 X83.958 Y90.18 E173.81251
G0 F3600 X83.392 Y90.18
G1 F1800 X103.032 Y109.82 E175.19822
G0 F3600 X102.466 Y109.82
G1 F1800 X82.826 Y90.18 E176.58393
G0 F3600 X82.261 Y90.18
G1 F1800 X101.9 Y109.82 E177.9696
G0 F3600 X101.335 Y109.82
G1 F1800 X81.695 Y90.18 E179.35531
G0 F3600 X81.129 Y90.18
G1 F1800 X100.769 Y109.82 E180.74102
G0 F3600 X100.203 Y109.82
G1 F1800 X80.564 Y90.18 E182.12669
G0 F3600 X79.998 Y90.18
G1 F1800 X99.638 Y109.82 E183.5124
G0 F3600 X99.072 Y109.82
G1 F1800 X79.432 Y90.18 E184.89811
G0 F3600 X78.866 Y90.18
G1 F1800 X98.506 Y109.82 E186.28382
G0 F3600 X97.941 Y109.82
G1 F1800 X78.301 Y90.18 E187.66952
G0 F3600 X77.735 Y90.18
G1 F1800 X97.375 Y109.82 E189.05523
G0 F3600 X96.809 Y109.82
G1 F1800 X77.169 Y90.18 E190.44094
G0 F3600 X76.604 Y90.18
G1 F1800 X96.244 Y109.82 E191.82665
G0 F3600 X95.678 Y109.82
G1 F1800 X76.038 Y90.18 E193.21236
G0 F3600 X75.472 Y90.18
G1 F1800 X95.112 Y109.82 E194.59806
G0 F3600 X94.547 Y109.82
G1 F1800 X74.907 Y90.18 E195.98377
G0 F3600 X74.341 Y90.18
G1 F1800 X93.981 Y109.82 E197.36948
G0 F3600 X93.415 Y109.82
G1 F1800 X73.775 Y90.18 E198.75519
G0 F3600 X73.21 Y90.18
G1 F1800 X92.849 Y109.82 E200.14086
G0 F3600 X92.284 Y109.82
G1 F1800 X72.644 Y90.18 E201.52657
G0 F3600 X72.078 Y90.18
G1 F1800 X91.718 Y109.82 E202.91228
G0 F3600 X91.152 Y109.82
G1 F1800 X71.513 Y90.18 E204.29795
G0 F3600 X70.947 Y90.18
G1 F1800 X90.587 Y109.82 E205.68366
G0 F3600 X90.021 Y109.82
G1 F1800 X70.381 Y90.18 E207.06937
G0 F3600 X69.815 Y90.18
G1 F1800 X89.455 Y109.82 E208.45507
G0 F3600 X88.89 Y109.82
G1 F1800 X69.25 Y90.18 E209.84078
G0 F3600 X68.684 Y90.18
G1 F1800 X88.324 Y109.82 E211.22649
G0 F3600 X87.758 Y109.82
G1 F1800 X68.118 Y90.18 E212.6122
G0 F3600 X67.553 Y90.18
G1 F1800 X87.193 Y109.82 E213.99791
G0 F3600 X86.627 Y109.82
G1 F1800 X66.987 Y90.18 E215.38361
G0 F3600 X66.421 Y90.18
G1 F1800 X86.061 Y109.82 E216.76932
G0 F3600 X85.496 Y109.82
G1 F1800 X65.856 Y90.18 E218.15503
G0 F3600 X65.29 Y90.18
G1 F1800 X84.93 Y109.82 E219.54074
G0 F3600 X84.364 Y109.82
G1 F1800 X64.724 Y90.18 E220.92645
G0 F3600 X64.159 Y90.18
G1 F1800 X83.799 Y109.82 E222.31216
G0 F3600 X83.233 Y109.82
G1 F1800 X63.593 Y90.18 E223.69786
G0 F3600 X63.027 Y90.18
G1 F1800 X82.667 Y109.82 E225.08357
G0 F3600 X82.101 Y109.82
G1 F1800 X62.462 Y90.18 E226.46924
G0 F3600 X61.896 Y90.18
G1 F1800 X81.536 Y109.82 E227.85495
G0 F3600 X80.97 Y109.82
G1 F1800 X61.33 Y90.18 E229.24066
G0 F3600 X60.765 Y90.18
G1 F1800 X80.404 Y109.82 E230.62633
G0 F3600 X79.839 Y109.82
G1 F1800 X60.199 Y90.18 E232.01204
G0 F3600 X59.633 Y90.18
G1 F1800 X79.273 Y109.82 E233.39775
G0 F3600 X78.707 Y109.82
G1 F1800 X59.067 Y90.18 E234.78346
G0 F3600 X58.502 Y90.18
G1 F1800 X78.142 Y109.82 E236.16917
G0 F3600 X77.576 Y109.82
G1 F1800 X57.936 Y90.18 E237.55487
G0 F3600 X57.37 Y90.18
G1 F1800 X77.01 Y109.82 E238.94058
G0 F3600 X76.445 Y109.82
G1 F1800 X56.805 Y90.18 E240.32629
G0 F3600 X56.239 Y90.18
G1 F1800 X75.879 Y109.82 E241.712
G0 F3600 X75.313 Y109.82
G1 F1800 X55.673 Y90.18 E243.09771
G0 F3600 X55.108 Y90.18
G1 F1800 X74.748 Y109.82 E244.48341
G0 F3600 X74.182 Y109.82
G1 F1800 X54.542 Y90.18 E245.86912
G0 F3600 X53.976 Y90.18
G1 F1800 X73.616 Y109.82 E247.25483
G0 F3600 X73.05 Y109.82
G1 F1800 X53.411 Y90.18 E248.6405
G0 F3600 X52.845 Y90.18
G1 F1800 X72.485 Y109.82 E250.02621
G0 F3600 X71.919 Y109.82
G1 F1800 X52.279 Y90.18 E251.41192
G0 F3600 X51.714 Y90.18
G1 F1800 X71.353 Y109.82 E252.79759
G0 F3600 X70.788 Y109.82
G1 F1800 X51.18 Y90.212 E254.18104
G0 F3600 X51.18 Y90.778
G1 F1800 X70.222 Y109.82 E255.52456
G0 F3600 X69.656 Y109.82
G1 F1800 X51.18 Y91.343 E256.82817
G0 F3600 X51.18 Y91.909
G1 F1800 X69.091 Y109.82 E258.09189
G0 F3600 X68.525 Y109.82
G1 F1800 X51.18 Y92.475 E259.31568
G0 F3600 X51.18 Y93.04
G1 F1800 X67.959 Y109.82 E260.49956
G0 F3600 X67.394 Y109.82
G1 F1800 X51.18 Y93.606 E261.64355
G0 F3600 X51.18 Y94.172
G1 F1800 X66.828 Y109.82 E262.7476
G0 F3600 X66.262 Y109.82
G1 F1800 X51.18 Y94.737 E263.81175
G0 F3600 X51.18 Y95.303
G1 F1800 X65.697 Y109.82 E264.836
G0 F3600 X65.131 Y109.82
G1 F1800 X51.18 Y95.869 E265.82032
G0 F3600 X51.18 Y96.435
G1 F1800 X64.565 Y109.82 E266.7647
G0 F3600 X64 Y109.82
G1 F1800 X51.18 Y97 E267.66922
G0 F3600 X51.18 Y97.566
G1 F1800 X63.434 Y109.82 E268.53381
G0 F3600 X62.868 Y109.82
G1 F1800 X51.18 Y98.132 E269.35846
G0 F3600 X51.18 Y98.697
G1 F1800 X62.302 Y109.82 E270.14321
G0 F3600 X61.737 Y109.82
G1 F1800 X51.18 Y99.263 E270.88807
G0 F3600 X51.18 Y99.829
G1 F1800 X61.171 Y109.82 E271.59299
G0 F3600 X60.605 Y109.82
G1 F1800 X51.18 Y100.394 E272.25801
G0 F3600 X51.18 Y100.96
G1 F1800 X60.04 Y109.82 E272.88313
G0 F3600 X59.474 Y109.82
G1 F1800 X51.18 Y101.526 E273.46831
G0 F3600 X51.18 Y102.091
G1 F1800 X58.908 Y109.82 E274.0136
G0 F3600 X58.343 Y109.82
G1 F1800 X51.18 Y102.657 E274.51899
G0 F3600 X51.18 Y103.223
G1 F1800 X57.777 Y109.82 E274.98444
G0 F3600 X57.211 Y109.82
G1 F1800 X51.18 Y103.788 E275.41
G0 F3600 X51.18 Y104.354
G1 F1800 X56.646 Y109.82 E275.79565
G0 F3600 X56.08 Y109.82
G1 F1800 X51.18 Y104.92 E276.14138
G0 F3600 X51.18 Y105.485
G1 F1800 X55.514 Y109.82 E276.4472
G0 F3600 X54.949 Y109.82
G1 F1800 X51.18 Y106.051 E276.71312
G0 F3600 X51.18 Y106.617
G1 F1800 X54.383 Y109.82 E276.93911
G0 F3600 X53.817 Y109.82
G1 F1800 X51.18 Y107.183 E277.12516
G0 F3600 X51.18 Y107.748
G1 F1800 X53.252 Y109.82 E277.27136
G0 F3600 X52.686 Y109.82
G1 F1800 X51.18 Y108.314 E277.37761
G0 F3600 X51.18 Y108.88
G1 F1800 X52.12 Y109.82 E277.44393
G0 F3600 X51.554 Y109.82
G1 F1800 X51.18 Y109.445 E277.47036
G0 F3600 X51.21 Y109.445
;MESH:NONMESH
G0 F600 Z0.5
G0 F3600 X50.424 Y89.424
G0 X50.424 Y88.335
G0 X48.622 Y86.126
;TIME_ELAPSED:193.588931
;LAYER:1
M106 S255
;TYPE:SKIRT
G1 F1800 X49.093 Y85.943 E277.48716
G1 X49.588 Y85.837 E277.504
G1 X50.24 Y85.801 E277.52572
G1 X145.588 Y85.8 E280.69701
G1 X146.286 Y85.81 E280.72022
G1 X146.789 Y85.857 E280.73703
G1 X147.279 Y85.983 E280.75385
G1 X147.743 Y86.185 E280.77069
G1 X148.169 Y86.457 E280.7875
G1 X148.547 Y86.792 E280.8043
G1 X148.867 Y87.183 E280.8211
G1 X149.122 Y87.62 E280.83793
G1 X149.305 Y88.091 E280.85474
G1 X149.412 Y88.585 E280.87155
G1 X149.448 Y89.24 E280.89337
G1 X149.449 Y110.308 E281.59409
G1 X149.439 Y111.035 E281.61827
G1 X149.392 Y111.538 E281.63508
G1 X149.266 Y112.028 E281.6519
G1 X149.065 Y112.492 E281.66872
G1 X148.793 Y112.918 E281.68553
G1 X148.458 Y113.297 E281.70236
G1 X148.067 Y113.617 E281.71916
G1 X147.631 Y113.872 E281.73596
G1 X147.16 Y114.056 E281.75278
G1 X146.665 Y114.162 E281.76962
G1 X146.221 Y114.199 E281.78443
G1 X50.661 Y114.2 E284.96277
