;FLAVOR:Marlin
;TIME:196
;Filament used: 0.719352m
;Layer height: 0.6
;MINX:43
;MINY:82
;MINZ:0.3
;MAXX:153.249
;MAXY:118
;MAXZ:3.9
;TARGET_MACHINE.NAME:Unknown
;Generated with Cura_SteamEngine 5.12.0
M104 S200
M105
M109 S200
G28 ;Home
G1 Z15.0 F6000 ;Move the platform down 15mm
;Prime the extruder
G92 E0
G1 F200 E3
G92 E0
M82 ;absolute extrusion mode
G92 E0
G92 E0
G1 F1500 E-6.5
;LAYER_COUNT:7
;LAYER:0
M107
G0 F3600 X46.694 Y82.839 Z0.3
;TYPE:SKIRT
G1 F1500 E0
G1 F1800 X45.864 Y83.341 E0.09123
G1 X44.908 Y84.186 E0.21123
G1 X44.312 Y84.936 E0.30134
G1 X43.768 Y85.793 E0.39681
G1 X43.407 Y86.677 E0.48661
G1 X43.119 Y87.668 E0.58368
G1 X43 Y88.781 E0.68895
G1 X43 Y111.411 E2.81737
G1 X43.185 Y112.654 E2.93556
G1 X43.518 Y113.621 E3.03175
G1 X43.839 Y114.306 E3.1029
G1 X44.341 Y115.136 E3.19414
G1 X45.186 Y116.092 E3.31414
G1 X45.936 Y116.688 E3.40424
G1 X46.793 Y117.232 E3.49971
G1 X47.677 Y117.593 E3.58952
G1 X48.668 Y117.881 E3.68658
G1 X49.781 Y118 E3.79186
G1 X146.66 Y118 E12.9036
G1 X147.892 Y117.817 E13.02074
G1 X148.941 Y117.458 E13.12502
G1 X149.591 Y117.14 E13.19308
G1 X150.376 Y116.666 E13.27933
G1 X151.341 Y115.815 E13.40034
G1 X151.937 Y115.064 E13.49051
G1 X152.481 Y114.207 E13.58598
G1 X152.842 Y113.323 E13.67579
G1 X153.13 Y112.332 E13.77285
G1 X153.249 Y111.219 E13.87813
G1 X153.249 Y88.589 E16.00655
G1 X153.064 Y87.346 E16.12474
G1 X152.731 Y86.379 E16.22093
G1 X152.41 Y85.694 E16.29208
G1 X151.908 Y84.864 E16.38331
G1 X151.063 Y83.908 E16.50332
G1 X150.313 Y83.312 E16.59342
G1 X149.456 Y82.768 E16.68889
G1 X148.572 Y82.407 E16.77869
G1 X147.581 Y82.119 E16.87576
G1 X146.468 Y82 E16.98103
G1 X49.589 Y82 E26.09277
G1 X48.346 Y82.185 E26.21097
G1 X47.379 Y82.518 E26.30716
G1 X46.694 Y82.839 E26.37831
G0 F3600 X47.632 Y84.609
G1 F1800 X48.137 Y84.372 E26.43078
G1 X48.823 Y84.136 E26.49901
G1 X49.736 Y84 E26.58583
G1 X146.358 Y84 E35.67339
G1 X147.198 Y84.09 E35.75285
G1 X147.91 Y84.297 E35.82259
G1 X148.534 Y84.552 E35.88599
G1 X149.152 Y84.944 E35.95482
G1 X149.681 Y85.364 E36.01835
G1 X150.291 Y86.055 E36.10504
G1 X150.64 Y86.632 E36.16846
G1 X150.877 Y87.137 E36.22093
G1 X151.113 Y87.823 E36.28916
G1 X151.249 Y88.736 E36.37598
G1 X151.249 Y111.109 E38.48022
G1 X151.159 Y111.949 E38.55968
G1 X150.952 Y112.661 E38.62942
G1 X150.697 Y113.285 E38.69282
G1 X150.305 Y113.903 E38.76165
G1 X149.885 Y114.432 E38.82518
G1 X149.188 Y115.047 E38.9126
G1 X148.557 Y115.428 E38.98193
G1 X148.173 Y115.607 E39.02178
G1 X147.419 Y115.865 E39.09673
G1 X146.513 Y116 E39.18288
G1 X49.891 Y116 E48.27045
G1 X49.051 Y115.91 E48.34991
G1 X48.339 Y115.703 E48.41964
G1 X47.715 Y115.448 E48.48304
G1 X47.097 Y115.056 E48.55188
G1 X46.568 Y114.636 E48.6154
G1 X45.958 Y113.945 E48.7021
G1 X45.609 Y113.368 E48.76552
G1 X45.372 Y112.863 E48.81799
G1 X45.136 Y112.177 E48.88622
G1 X45 Y111.264 E48.97304
G1 X45 Y88.891 E51.07728
G1 X45.09 Y88.051 E51.15673
G1 X45.297 Y87.339 E51.22647
G1 X45.552 Y86.715 E51.28987
G1 X45.944 Y86.097 E51.3587
G1 X46.364 Y85.568 E51.42223
G1 X47.055 Y84.958 E51.50892
G1 X47.632 Y84.609 E51.57235
G0 F3600 X49.575 Y88.095
G1 F1800 X49.884 Y88 E51.60275
G1 X146.249 Y88 E60.66615
G1 X146.528 Y88.04 E60.69266
G1 X146.785 Y88.156 E60.71918
G1 X147 Y88.339 E60.74573
G1 X147.154 Y88.575 E60.77224
G1 X147.249 Y88.884 E60.80264
G1 X147.249 Y111 E62.88271
G1 X147.209 Y111.279 E62.90922
G1 X147.093 Y111.536 E62.93574
G1 X146.91 Y111.751 E62.9623
G1 X146.674 Y111.905 E62.9888
G1 X146.365 Y112 E63.0192
G1 X50 Y112 E72.0826
G1 X49.721 Y111.96 E72.10911
G1 X49.464 Y111.844 E72.13563
G1 X49.249 Y111.661 E72.16218
G1 X49.095 Y111.425 E72.18869
G1 X49 Y111.116 E72.21909
G1 X49 Y89 E74.29916
G1 X49.04 Y88.721 E74.32567
G1 X49.156 Y88.464 E74.35219
G1 X49.339 Y88.249 E74.37875
G1 X49.575 Y88.095 E74.40525
G0 F3600 X48.482 Y86.42
G1 F1800 X48.987 Y86.183 E74.45772
G1 X49.296 Y86.088 E74.48812
G1 X49.884 Y86 E74.54404
G1 X146.249 Y86 E83.60744
G1 X146.812 Y86.06 E83.66069
G1 X147.351 Y86.217 E83.71349
G1 X147.608 Y86.333 E83.74001
G1 X148.081 Y86.633 E83.79269
G1 X148.296 Y86.816 E83.81925
G1 X148.675 Y87.246 E83.87316
G1 X148.829 Y87.482 E83.89966
G1 X149.066 Y87.987 E83.95213
G1 X149.161 Y88.296 E83.98253
G1 X149.249 Y88.884 E84.03845
G1 X149.249 Y111 E86.11852
G1 X149.189 Y111.563 E86.17177
G1 X149.032 Y112.102 E86.22458
G1 X148.916 Y112.359 E86.2511
G1 X148.616 Y112.832 E86.30378
G1 X148.433 Y113.047 E86.33033
G1 X148.003 Y113.426 E86.38424
G1 X147.523 Y113.716 E86.43699
G1 X146.953 Y113.912 E86.49368
G1 X146.365 Y114 E86.5496
G1 X50 Y114 E95.61299
G1 X49.437 Y113.94 E95.66624
G1 X48.898 Y113.783 E95.71904
G1 X48.641 Y113.667 E95.74556
G1 X48.168 Y113.367 E95.79824
G1 X47.953 Y113.184 E95.8248
G1 X47.574 Y112.754 E95.87871
G1 X47.42 Y112.518 E95.90521
G1 X47.183 Y112.013 E95.95768
G1 X47.088 Y111.704 E95.98808
G1 X47 Y111.116 E96.044
G1 X47 Y89 E98.12408
G1 X47.06 Y88.437 E98.17733
G1 X47.217 Y87.898 E98.23013
G1 X47.333 Y87.641 E98.25665
G1 X47.633 Y87.168 E98.30933
G1 X47.816 Y86.953 E98.33588
G1 X48.246 Y86.574 E98.38979
G1 X48.482 Y86.42 E98.4163
G1 F1500 E91.9163
;MESH:example.stl
G0 F3600 X52.024 Y91.024
G0 X145.248 Y110
;TYPE:WALL-OUTER
G1 F1500 E98.4163
G1 F1800 X51 Y110 E107.28058
G1 X51 Y90 E109.16164
G1 X145.248 Y90 E118.02593
G1 X145.248 Y110 E119.90698
G0 F3600 X144.248 Y110
G0 X144.169 Y108.92
G0 X142.139 Y106.92
G0 X143.348 Y108.1
;TYPE:SKIN
G1 F1800 X52.9 Y108.1 E128.41387
G1 X52.9 Y91.9 E129.93752
G1 X143.348 Y91.9 E138.44441
G1 X143.348 Y108.1 E139.96806
G0 F3600 X142.169 Y106.92
G0 X142.139 Y94.264
G0 X142.348 Y94.264
G1 F1800 X140.983 Y92.9 E140.14956
G0 F3600 X140.983 Y93.11
G0 X138.155 Y93.11
G0 X138.155 Y92.9
G1 F1800 X142.348 Y97.093 E140.70727
G0 F3600 X142.139 Y97.093
G0 X142.139 Y99.921
G0 X142.348 Y99.921
G1 F1800 X135.326 Y92.9 E141.64121
G0 F3600 X135.326 Y93.11
G0 X132.498 Y93.11
G0 X132.498 Y92.9
G1 F1800 X142.348 Y102.75 E142.95136
G0 F3600 X142.139 Y102.75
G0 X142.139 Y105.578
G0 X142.348 Y105.578
G1 F1800 X129.669 Y92.9 E144.63774
G0 F3600 X129.669 Y93.11
G0 X126.841 Y93.11
G0 X126.841 Y92.9
G1 F1800 X141.041 Y107.1 E146.52649
G0 F3600 X141.041 Y106.89
G0 X138.213 Y106.89
G0 X138.213 Y107.1
G1 F1800 X124.012 Y92.9 E148.41531
G0 F3600 X124.012 Y93.11
G0 X121.184 Y93.11
G0 X121.184 Y92.9
G1 F1800 X135.384 Y107.1 E150.30406
G0 F3600 X135.384 Y106.89
G0 X132.556 Y106.89
G0 X132.556 Y107.1
G1 F1800 X118.356 Y92.9 E152.19281
G0 F3600 X118.356 Y93.11
G0 X115.527 Y93.11
G0 X115.527 Y92.9
G1 F1800 X129.727 Y107.1 E154.08157
G0 F3600 X129.727 Y106.89
G0 X126.899 Y106.89
G0 X126.899 Y107.1
G1 F1800 X112.699 Y92.9 E155.97032
G0 F3600 X112.699 Y93.11
G0 X109.87 Y93.11
G0 X109.87 Y92.9
G1 F1800 X124.07 Y107.1 E157.85907
G0 F3600 X124.07 Y106.89
G0 X121.242 Y106.89
G0 X121.242 Y107.1
G1 F1800 X107.042 Y92.9 E159.74782
G0 F3600 X107.042 Y93.11
G0 X104.213 Y93.11
G0 X104.213 Y92.9
G1 F1800 X118.414 Y107.1 E161.63664
G0 F3600 X118.414 Y106.89
G0 X115.585 Y106.89
G0 X115.585 Y107.1
G1 F1800 X101.385 Y92.9 E163.52539
G0 F3600 X101.385 Y93.11
G0 X98.557 Y93.11
G0 X98.557 Y92.9
G1 F1800 X112.757 Y107.1 E165.41414
G0 F3600 X112.757 Y106.89
G0 X109.928 Y106.89
G0 X109.928 Y107.1
G1 F1800 X95.728 Y92.9 E167.3029
G0 F3600 X95.728 Y93.11
G0 X92.9 Y93.11
G0 X92.9 Y92.9
G1 F1800 X107.1 Y107.1 E169.19165
G0 F3600 X107.1 Y106.89
G0 X104.271 Y106.89
G0 X104.271 Y107.1
G1 F1800 X90.071 Y92.9 E171.0804
G0 F3600 X90.071 Y93.11
G0 X87.243 Y93.11
G0 X87.243 Y92.9
G1 F1800 X101.443 Y107.1 E172.96915
G0 F3600 X101.443 Y106.89
G0 X98.615 Y106.89
G0 X98.615 Y107.1
G1 F1800 X84.414 Y92.9 E174.85797
G0 F3600 X84.414 Y93.11
G0 X81.586 Y93.11
G0 X81.586 Y92.9
G1 F1800 X95.786 Y107.1 E176.74672
G0 F3600 X95.786 Y106.89
G0 X92.958 Y106.89
G0 X92.958 Y107.1
G1 F1800 X78.758 Y92.9 E178.63548
G0 F3600 X78.758 Y93.11
G0 X75.929 Y93.11
G0 X75.929 Y92.9
G1 F1800 X90.129 Y107.1 E180.52423
G0 F3600 X90.129 Y106.89
G0 X87.301 Y106.89
G0 X87.301 Y107.1
G1 F1800 X73.101 Y92.9 E182.41298
G0 F3600 X73.101 Y93.11
G0 X70.272 Y93.11
G0 X70.272 Y92.9
G1 F1800 X84.472 Y107.1 E184.30173
G0 F3600 X84.472 Y106.89
G0 X81.644 Y106.89
G0 X81.644 Y107.1
G1 F1800 X67.444 Y92.9 E186.19049
G0 F3600 X67.444 Y93.11
G0 X64.615 Y93.11
G0 X64.615 Y92.9
G1 F1800 X78.816 Y107.1 E188.0793
G0 F3600 X78.816 Y106.89
G0 X75.987 Y106.89
G0 X75.987 Y107.1
G1 F1800 X61.787 Y92.9 E189.96806
G0 F3600 X61.787 Y93.11
G0 X58.959 Y93.11
G0 X58.959 Y92.9
G1 F1800 X73.159 Y107.1 E191.85681
G0 F3600 X73.159 Y106.89
G0 X70.33 Y106.89
G0 X70.33 Y107.1
G1 F1800 X56.13 Y92.9 E193.74556
G0 F3600 X56.13 Y93.11
G0 X54.11 Y93.498
G0 X53.9 Y93.498
G1 F1800 X67.502 Y107.1 E195.55477
G0 F3600 X67.502 Y106.89
G0 X64.673 Y106.89
G0 X64.673 Y107.1
G1 F1800 X53.9 Y96.326 E196.98776
G0 F3600 X54.11 Y96.326
G0 X54.11 Y99.155
G0 X53.9 Y99.155
G1 F1800 X61.845 Y107.1 E198.04453
G0 F3600 X61.845 Y106.89
G0 X59.017 Y106.89
G0 X59.017 Y107.1
G1 F1800 X53.9 Y101.983 E198.72515
G0 F3600 X54.11 Y101.983
G0 X54.11 Y104.812
G0 X53.9 Y104.812
G1 F1800 X56.188 Y107.1 E199.02948
G0 F3600 X56.188 Y104.99
;MESH:NONMESH
G0 F600 Z0.9
G0 F3600 X133.996 Y106.89
G0 X133.996 Y110
;TIME_ELAPSED:81.146109
;LAYER:1
M106 S255
;TYPE:WALL-OUTER
;MESH:example.stl
G1 X133.4960 Y110.0000 Z0.6602 E199.08593 F1800
G1 X132.9960 Y110.0000 Z0.6802 E199.14552
G1 X132.4961 Y110.0000 Z0.7002 E199.20825
G1 X131.9961 Y110.0000 Z0.7202 E199.27410
G1 X131.4961 Y110.0000 Z0.7402 E199.34310
G1 X130.9961 Y110.0000 Z0.7602 E199.41523
G1 X130.4962 Y110.0000 Z0.7802 E199.49049
G1 X129.9962 Y110.0000 Z0.8002 E199.56889
G1 X129.4962 Y110.0000 Z0.8202 E199.65042
G1 X128.9962 Y110.0000 Z0.8402 E199.73508
G1 X128.4963 Y110.0000 Z0.8601 E199.82289
G1 X127.9963 Y110.0000 Z0.8801 E199.91382
G1 X127.4963 Y110.0000 Z0.9001 E200.00789
G1 X126.9963 Y110.0000 Z0.9201 E200.10510
G1 X126.4964 Y110.0000 Z0.9401 E200.20544
G1 X125.9964 Y110.0000 Z0.9601 E200.30892
G1 X125.4964 Y110.0000 Z0.9801 E200.41553
G1 X124.9964 Y110.0000 Z1.0001 E200.52527
G1 X124.4965 Y110.0000 Z1.0201 E200.63815
G1 X123.9965 Y110.0000 Z1.0401 E200.75417
G1 X123.4965 Y110.0000 Z1.0601 E200.87332
G1 X122.9965 Y110.0000 Z1.0801 E200.99560
G1 X122.4966 Y110.0000 Z1.1001 E201.12102
G1 X121.9966 Y110.0000 Z1.1201 E201.24958
G1 X121.4966 Y110.0000 Z1.1401 E201.38126
G1 X120.9966 Y110.0000 Z1.1601 E201.51609
G1 X120.4967 Y110.0000 Z1.1801 E201.65405
G1 X119.9967 Y110.0000 Z1.2001 E201.79512
G1 X119.4967 Y110.0000 Z1.2201 E201.93619
G1 X118.9967 Y110.0000 Z1.2401 E202.07726
G1 X118.4967 Y110.0000 Z1.2601 E202.21834
G1 X117.9968 Y110.0000 Z1.2801 E202.35941
G1 X117.4968 Y110.0000 Z1.3001 E202.50048
G1 X116.9968 Y110.0000 Z1.3201 E202.64155
G1 X116.4968 Y110.0000 Z1.3401 E202.78263
G1 X115.9969 Y110.0000 Z1.3601 E202.92370
G1 X115.4969 Y110.0000 Z1.3801 E203.06477
G1 X114.9969 Y110.0000 Z1.4001 E203.20584
G1 X114.4969 Y110.0000 Z1.4201 E203.34691
G1 X113.9970 Y110.0000 Z1.4401 E203.48799
G1 X113.4970 Y110.0000 Z1.4601 E203.62906
G1 X112.9970 Y110.0000 Z1.4801 E203.77013
G1 X51.0000 Y110.0000 Z0.9000 E215.43212
G1 Z0.9000 ;ZAA_RESET
G1 X51 Y90 E218.4036
G1 X112.4970 Y90.0000 Z0.9000 E229.97154
G1 X112.9970 Y90.0000 Z1.4801 E230.11261
G1 X113.4970 Y90.0000 Z1.4601 E230.25368
G1 X113.9970 Y90.0000 Z1.4401 E230.39475
G1 X114.4969 Y90.0000 Z1.4201 E230.53582
G1 X114.9969 Y90.0000 Z1.4001 E230.67690
G1 X115.4969 Y90.0000 Z1.3801 E230.81797
G1 X115.9969 Y90.0000 Z1.3601 E230.95904
G1 X116.4968 Y90.0000 Z1.3401 E231.10011
G1 X116.9968 Y90.0000 Z1.3201 E231.24119
G1 X117.4968 Y90.0000 Z1.3001 E231.38226
G1 X117.9968 Y90.0000 Z1.2801 E231.52333
G1 X118.4967 Y90.0000 Z1.2601 E231.66440
G1 X118.9967 Y90.0000 Z1.2401 E231.80548
G1 X119.4967 Y90.0000 Z1.2201 E231.94655
G1 X119.9967 Y90.0000 Z1.2001 E232.08762
G1 X120.4967 Y90.0000 Z1.1801 E232.22558
G1 X120.9966 Y90.0000 Z1.1601 E232.36040
G1 X121.4966 Y90.0000 Z1.1401 E232.49209
G1 X121.9966 Y90.0000 Z1.1201 E232.62065
G1 X122.4966 Y90.0000 Z1.1001 E232.74607
G1 X122.9965 Y90.0000 Z1.0801 E232.86835
G1 X123.4965 Y90.0000 Z1.0601 E232.98750
G1 X123.9965 Y90.0000 Z1.0401 E233.10351
G1 X124.4965 Y90.0000 Z1.0201 E233.21639
G1 X124.9964 Y90.0000 Z1.0001 E233.32614
G1 X125.4964 Y90.0000 Z0.9801 E233.43275
G1 X125.9964 Y90.0000 Z0.9601 E233.53623
G1 X126.4964 Y90.0000 Z0.9401 E233.63657
G1 X126.9963 Y90.0000 Z0.9201 E233.73377
G1 X127.4963 Y90.0000 Z0.9001 E233.82784
G1 X127.9963 Y90.0000 Z0.8801 E233.91878
G1 X128.4963 Y90.0000 Z0.8601 E234.00658
G1 X128.9962 Y90.0000 Z0.8402 E234.09125
G1 X129.4962 Y90.0000 Z0.8202 E234.17278
G1 X129.9962 Y90.0000 Z0.8002 E234.25118
G1 X130.4962 Y90.0000 Z0.7802 E234.32644
G1 X130.9961 Y90.0000 Z0.7602 E234.39857
G1 X131.4961 Y90.0000 Z0.7402 E234.46756
G1 X131.9961 Y90.0000 Z0.7202 E234.53342
G1 X132.4961 Y90.0000 Z0.7002 E234.59614
G1 X132.9960 Y90.0000 Z0.6802 E234.65573
G1 X133.4960 Y90.0000 Z0.6602 E234.71219
G1 X133.9960 Y90.0000 Z0.6402 E234.76551
G1 X133.9960 Y110.0000 Z0.6402 E236.47323
G0 F5400 X132.996 Y110
G0 X132.919 Y108.92
G0 X130.889 Y106.92
G0 X132.096 Y108.1
;TYPE:SKIN
G1 X131.5979 Y108.1000 Z0.7361 E236.54729 F1800
G1 X131.0998 Y108.1000 Z0.7560 E236.62473
G1 X130.6017 Y108.1000 Z0.7759 E236.70556
G1 X130.1036 Y108.1000 Z0.7959 E236.78977
G1 X129.6056 Y108.1000 Z0.8158 E236.87736
G1 X129.1075 Y108.1000 Z0.8357 E236.96834
G1 X128.6094 Y108.1000 Z0.8556 E237.06270
G1 X128.1113 Y108.1000 Z0.8755 E237.16045
G1 X127.6132 Y108.1000 Z0.8955 E237.26158
G1 X127.1151 Y108.1000 Z0.9154 E237.36609
G1 X126.6170 Y108.1000 Z0.9353 E237.47398
G1 X126.1189 Y108.1000 Z0.9552 E237.58526
G1 X125.6209 Y108.1000 Z0.9752 E237.69993
G1 X125.1228 Y108.1000 Z0.9951 E237.81797
G1 X124.6247 Y108.1000 Z1.0150 E237.93940
G1 X124.1266 Y108.1000 Z1.0349 E238.06422
G1 X123.6285 Y108.1000 Z1.0549 E238.19241
G1 X123.1304 Y108.1000 Z1.0748 E238.32399
G1 X122.6323 Y108.1000 Z1.0947 E238.45896
G1 X122.1342 Y108.1000 Z1.1146 E238.59731
G1 X121.6362 Y108.1000 Z1.1346 E238.73904
G1 X121.1381 Y108.1000 Z1.1545 E238.88415
G1 X120.6400 Y108.1000 Z1.1744 E239.03265
G1 X120.1419 Y108.1000 Z1.1943 E239.18454
G1 X119.6438 Y108.1000 Z1.2142 E239.33738
G1 X119.1457 Y108.1000 Z1.2342 E239.49023
G1 X118.6476 Y108.1000 Z1.2541 E239.64307
G1 X118.1495 Y108.1000 Z1.2740 E239.79592
G1 X117.6514 Y108.1000 Z1.2939 E239.94877
G1 X117.1534 Y108.1000 Z1.3139 E240.10161
G1 X116.6553 Y108.1000 Z1.3338 E240.25446
G1 X116.1572 Y108.1000 Z1.3537 E240.40730
G1 X115.6591 Y108.1000 Z1.3736 E240.56015
G1 X115.1610 Y108.1000 Z1.3936 E240.71300
G1 X114.6629 Y108.1000 Z1.4135 E240.86584
G1 X114.1648 Y108.1000 Z1.4334 E241.01869
G1 X113.6667 Y108.1000 Z1.4533 E241.17154
G1 X113.1687 Y108.1000 Z1.4733 E241.32438
G1 X112.6706 Y108.1000 Z1.4932 E241.47723
G1 X52.9000 Y108.1000 Z0.9000 E253.70493
G1 Z0.9000 ;ZAA_RESET
G1 X52.9 Y91.9 E255.72224
G1 X112.1725 Y91.9000 Z0.9000 E266.87172
G1 X112.6706 Y91.9000 Z1.4932 E267.01226
G1 X113.1687 Y91.9000 Z1.4733 E267.15280
G1 X113.6667 Y91.9000 Z1.4533 E267.29334
G1 X114.1648 Y91.9000 Z1.4334 E267.43388
G1 X114.6629 Y91.9000 Z1.4135 E267.57442
G1 X115.1610 Y91.9000 Z1.3936 E267.71496
G1 X115.6591 Y91.9000 Z1.3736 E267.85550
G1 X116.1572 Y91.9000 Z1.3537 E267.99604
G1 X116.6553 Y91.9000 Z1.3338 E268.13658
G1 X117.1534 Y91.9000 Z1.3139 E268.27712
G1 X117.6514 Y91.9000 Z1.2939 E268.41766
G1 X118.1495 Y91.9000 Z1.2740 E268.55820
G1 X118.6476 Y91.9000 Z1.2541 E268.69874
G1 X119.1457 Y91.9000 Z1.2342 E268.83928
G1 X119.6438 Y91.9000 Z1.2142 E268.97982
G1 X120.1419 Y91.9000 Z1.1943 E269.11947
G1 X120.6400 Y91.9000 Z1.1744 E269.25602
G1 X121.1381 Y91.9000 Z1.1545 E269.38945
G1 X121.6362 Y91.9000 Z1.1346 E269.51977
G1 X122.1342 Y91.9000 Z1.1146 E269.64698
G1 X122.6323 Y91.9000 Z1.0947 E269.77107
G1 X123.1304 Y91.9000 Z1.0748 E269.89206
G1 X123.6285 Y91.9000 Z1.0549 E270.00994
G1 X124.1266 Y91.9000 Z1.0349 E270.12470
G1 X124.6247 Y91.9000 Z1.0150 E270.23635
G1 X125.1228 Y91.9000 Z0.9951 E270.34489
G1 X125.6209 Y91.9000 Z0.9752 E270.45032
G1 X126.1189 Y91.9000 Z0.9552 E270.55264
G1 X126.6170 Y91.9000 Z0.9353 E270.65185
G1 X127.1151 Y91.9000 Z0.9154 E270.74795
G1 X127.6132 Y91.9000 Z0.8955 E270.84094
